( pcb2gcode 2.0.0 )
( Software-independent Gcode )

G94 ( Inches per minute feed rate. )
G20 ( Units == INCHES. )

G90 ( Absolute coordinates. )
G00 S1000 ( RPM spindle speed. )
G64 P0.00040 ( set maximum deviation from commanded toolpath )
G01 F1.96850 ( Feedrate. )


G00 Z0.39370 (Retract to tool change height)
T0
M5      (Spindle stop.)
G04 P1.00000 (Wait for spindle to stop)
(MSG, Change tool bit to mill diameter 0.00787in)
M6      (Tool change.)
M0      (Temporary machine stop.)
M3 ( Spindle on clockwise. )
G04 P1.00000 (Wait for spindle to get up to speed)
G04 P0 ( dwell for no time -- G64 should not smooth over this point )
G00 Z0.19685 ( retract )

G00 X0.07480 Y-0.59055 ( rapid move to begin. )
G01 F0.98425
G01 Z-0.01575
G04 P0 ( dwell for no time -- G64 should not smooth over this point )
G01 F1.96850
G01 X0.07480 Y-0.59055
G01 X0.07586 Y-0.59995
G01 X0.07855 Y-0.60816
G01 X0.08307 Y-0.61601
G01 X0.08884 Y-0.62244
G01 X0.09682 Y-0.62824
G01 X0.10473 Y-0.63174
G01 X0.11399 Y-0.63364
G01 X0.12304 Y-0.63356
G01 X0.13149 Y-0.63174
G01 X0.14011 Y-0.62783
G01 X0.14738 Y-0.62244
G01 X0.15315 Y-0.61601
G01 X0.15767 Y-0.60816
G01 X0.16036 Y-0.59995
G01 X0.16142 Y-0.59055
G01 X0.16036 Y-0.58115
G01 X0.15767 Y-0.57294
G01 X0.15315 Y-0.56510
G01 X0.14738 Y-0.55866
G01 X0.14011 Y-0.55327
G01 X0.13188 Y-0.54951
G01 X0.12223 Y-0.54746
G01 X0.11318 Y-0.54754
G01 X0.10473 Y-0.54936
G01 X0.09611 Y-0.55327
G01 X0.08884 Y-0.55866
G01 X0.08307 Y-0.56510
G01 X0.07855 Y-0.57294
G01 X0.07586 Y-0.58115
G01 X0.07480 Y-0.59055
G04 P0 ( dwell for no time -- G64 should not smooth over this point )
G00 Z0.19685 ( retract )

G00 X0.07480 Y-0.76772 ( rapid move to begin. )
G01 F0.98425
G01 Z-0.01575
G04 P0 ( dwell for no time -- G64 should not smooth over this point )
G01 F1.96850
G01 X0.07480 Y-0.76772
G01 X0.07586 Y-0.77712
G01 X0.07855 Y-0.78533
G01 X0.08307 Y-0.79317
G01 X0.08884 Y-0.79961
G01 X0.09611 Y-0.80500
G01 X0.10434 Y-0.80876
G01 X0.11399 Y-0.81081
G01 X0.12304 Y-0.81072
G01 X0.13149 Y-0.80890
G01 X0.14011 Y-0.80500
G01 X0.14738 Y-0.79961
G01 X0.15315 Y-0.79317
G01 X0.15767 Y-0.78533
G01 X0.16036 Y-0.77712
G01 X0.16142 Y-0.76772
G01 X0.16036 Y-0.75831
G01 X0.15767 Y-0.75010
G01 X0.15315 Y-0.74226
G01 X0.14738 Y-0.73582
G01 X0.14011 Y-0.73043
G01 X0.13188 Y-0.72668
G01 X0.12223 Y-0.72462
G01 X0.11318 Y-0.72471
G01 X0.10473 Y-0.72653
G01 X0.09611 Y-0.73043
G01 X0.08884 Y-0.73582
G01 X0.08307 Y-0.74226
G01 X0.07855 Y-0.75010
G01 X0.07586 Y-0.75831
G01 X0.07480 Y-0.76772
G04 P0 ( dwell for no time -- G64 should not smooth over this point )
G00 Z0.19685 ( retract )

G00 X0.33071 Y-0.76772 ( rapid move to begin. )
G01 F0.98425
G01 Z-0.01575
G04 P0 ( dwell for no time -- G64 should not smooth over this point )
G01 F1.96850
G01 X0.33071 Y-0.76772
G01 X0.33176 Y-0.77712
G01 X0.33445 Y-0.78533
G01 X0.33875 Y-0.79283
G01 X0.34536 Y-0.80016
G01 X0.35273 Y-0.80541
G01 X0.36063 Y-0.80890
G01 X0.36908 Y-0.81072
G01 X0.37854 Y-0.81079
G01 X0.38778 Y-0.80876
G01 X0.39567 Y-0.80522
G01 X0.40267 Y-0.80016
G01 X0.40905 Y-0.79317
G01 X0.41373 Y-0.78495
G01 X0.41627 Y-0.77712
G01 X0.41730 Y-0.76813
G01 X0.41637 Y-0.75877
G01 X0.79719 Y-0.37795
G01 X1.10709 Y-0.37795
G01 X1.11207 Y-0.37740
G01 X1.11648 Y-0.37599
G01 X1.12350 Y-0.37129
G01 X1.12650 Y-0.36776
G01 X1.12904 Y-0.36301
G01 X1.13031 Y-0.35856
G01 X1.13071 Y-0.35433
G01 X1.13071 Y0.32549
G01 X1.13735 Y0.33235
G01 X1.14107 Y0.33875
G01 X1.14356 Y0.34616
G01 X1.14449 Y0.35433
G01 X1.14356 Y0.36250
G01 X1.14107 Y0.36991
G01 X1.13757 Y0.37597
G01 X1.13240 Y0.38183
G01 X1.12613 Y0.38650
G01 X1.11903 Y0.38975
G01 X1.11058 Y0.39155
G01 X1.10318 Y0.39153
G01 X1.09593 Y0.39001
G01 X1.08875 Y0.38691
G01 X1.08177 Y0.38183
G01 X1.07660 Y0.37597
G01 X1.07277 Y0.36916
G01 X1.07044 Y0.36170
G01 X1.06971 Y0.35474
G01 X1.07044 Y0.34696
G01 X1.07292 Y0.33912
G01 X1.07709 Y0.33203
G01 X1.08346 Y0.32549
G01 X1.08346 Y-0.33071
G01 X0.78740 Y-0.33071
G01 X0.78242 Y-0.33126
G01 X0.77461 Y-0.33449
G01 X0.77070 Y-0.33763
G01 X0.38280 Y-0.72553
G01 X0.37854 Y-0.72465
G01 X0.36990 Y-0.72462
G01 X0.36103 Y-0.72642
G01 X0.35236 Y-0.73021
G01 X0.34475 Y-0.73582
G01 X0.33898 Y-0.74226
G01 X0.33445 Y-0.75010
G01 X0.33176 Y-0.75831
G01 X0.33071 Y-0.76772
G04 P0 ( dwell for no time -- G64 should not smooth over this point )
G00 Z0.19685 ( retract )

G00 X0.90157 Y-0.76772 ( rapid move to begin. )
G01 F0.98425
G01 Z-0.01575
G04 P0 ( dwell for no time -- G64 should not smooth over this point )
G01 F1.96850
G01 X0.90157 Y-0.76772
G01 X0.90263 Y-0.77712
G01 X0.90532 Y-0.78533
G01 X0.90962 Y-0.79283
G01 X0.91561 Y-0.79961
G01 X0.92288 Y-0.80500
G01 X0.93111 Y-0.80876
G01 X0.94077 Y-0.81081
G01 X0.94941 Y-0.81079
G01 X0.95826 Y-0.80890
G01 X0.96688 Y-0.80500
G01 X0.97415 Y-0.79961
G01 X0.98014 Y-0.79283
G01 X0.98444 Y-0.78533
G01 X0.98731 Y-0.77631
G01 X0.98819 Y-0.76772
G01 X0.98731 Y-0.75912
G01 X0.98444 Y-0.75010
G01 X0.98014 Y-0.74261
G01 X0.97415 Y-0.73582
G01 X0.96688 Y-0.73043
G01 X0.95865 Y-0.72668
G01 X0.94900 Y-0.72462
G01 X0.94036 Y-0.72465
G01 X0.93150 Y-0.72653
G01 X0.92288 Y-0.73043
G01 X0.91561 Y-0.73582
G01 X0.90962 Y-0.74261
G01 X0.90532 Y-0.75010
G01 X0.90263 Y-0.75831
G01 X0.90157 Y-0.76772
G04 P0 ( dwell for no time -- G64 should not smooth over this point )
G00 Z0.19685 ( retract )

G00 X1.15748 Y-0.76772 ( rapid move to begin. )
G01 F0.98425
G01 Z-0.01575
G04 P0 ( dwell for no time -- G64 should not smooth over this point )
G01 F1.96850
G01 X1.15748 Y-0.76772
G01 X1.15836 Y-0.75912
G01 X1.16108 Y-0.75049
G01 X1.16575 Y-0.74226
G01 X1.17152 Y-0.73582
G01 X1.17879 Y-0.73043
G01 X1.18740 Y-0.72653
G01 X1.19667 Y-0.72462
G01 X1.20490 Y-0.72462
G01 X1.20957 Y-0.72553
G01 X1.35000 Y-0.58510
G01 X1.35040 Y-0.38357
G01 X1.35196 Y-0.37841
G01 X1.35666 Y-0.37138
G01 X1.38346 Y-0.34455
G01 X1.38346 Y0.32549
G01 X1.37683 Y0.33235
G01 X1.37311 Y0.33875
G01 X1.37044 Y0.34696
G01 X1.36971 Y0.35474
G01 X1.37061 Y0.36250
G01 X1.37311 Y0.36991
G01 X1.37683 Y0.37631
G01 X1.38238 Y0.38238
G01 X1.38875 Y0.38691
G01 X1.39593 Y0.39001
G01 X1.40318 Y0.39153
G01 X1.41058 Y0.39155
G01 X1.41825 Y0.39001
G01 X1.42613 Y0.38650
G01 X1.43240 Y0.38183
G01 X1.43735 Y0.37631
G01 X1.44140 Y0.36916
G01 X1.44373 Y0.36170
G01 X1.44449 Y0.35433
G01 X1.44356 Y0.34616
G01 X1.44107 Y0.33875
G01 X1.43735 Y0.33235
G01 X1.43071 Y0.32549
G01 X1.43071 Y-0.35433
G01 X1.43031 Y-0.35856
G01 X1.42904 Y-0.36301
G01 X1.42650 Y-0.36776
G01 X1.39724 Y-0.39758
G01 X1.39724 Y-0.59488
G01 X1.39670 Y-0.59986
G01 X1.39346 Y-0.60767
G01 X1.39033 Y-0.61159
G01 X1.24314 Y-0.75877
G01 X1.24407 Y-0.76813
G01 X1.24304 Y-0.77712
G01 X1.24050 Y-0.78495
G01 X1.23556 Y-0.79349
G01 X1.22944 Y-0.80016
G01 X1.22279 Y-0.80500
G01 X1.21417 Y-0.80890
G01 X1.20490 Y-0.81081
G01 X1.19585 Y-0.81072
G01 X1.18780 Y-0.80901
G01 X1.17950 Y-0.80541
G01 X1.17213 Y-0.80016
G01 X1.16553 Y-0.79283
G01 X1.16108 Y-0.78495
G01 X1.15853 Y-0.77712
G01 X1.15748 Y-0.76772
G04 P0 ( dwell for no time -- G64 should not smooth over this point )
G00 Z0.19685 ( retract )

G00 X1.15748 Y-0.59055 ( rapid move to begin. )
G01 F0.98425
G01 Z-0.01575
G04 P0 ( dwell for no time -- G64 should not smooth over this point )
G01 F1.96850
G01 X1.15748 Y-0.59055
G01 X1.15836 Y-0.59915
G01 X1.16108 Y-0.60778
G01 X1.16575 Y-0.61601
G01 X1.17152 Y-0.62244
G01 X1.17950 Y-0.62824
G01 X1.18740 Y-0.63174
G01 X1.19667 Y-0.63364
G01 X1.20572 Y-0.63356
G01 X1.21417 Y-0.63174
G01 X1.22279 Y-0.62783
G01 X1.23006 Y-0.62244
G01 X1.23582 Y-0.61601
G01 X1.24050 Y-0.60778
G01 X1.24321 Y-0.59915
G01 X1.24409 Y-0.59055
G01 X1.24321 Y-0.58195
G01 X1.24050 Y-0.57332
G01 X1.23582 Y-0.56510
G01 X1.23006 Y-0.55866
G01 X1.22279 Y-0.55327
G01 X1.21455 Y-0.54951
G01 X1.20490 Y-0.54746
G01 X1.19585 Y-0.54754
G01 X1.18740 Y-0.54936
G01 X1.17879 Y-0.55327
G01 X1.17152 Y-0.55866
G01 X1.16575 Y-0.56510
G01 X1.16108 Y-0.57332
G01 X1.15836 Y-0.58195
G01 X1.15748 Y-0.59055
G04 P0 ( dwell for no time -- G64 should not smooth over this point )
G00 Z0.19685 ( retract )

G00 X1.68898 Y-0.77264 ( rapid move to begin. )
G01 F0.98425
G01 Z-0.01575
G04 P0 ( dwell for no time -- G64 should not smooth over this point )
G01 F1.96850
G01 X1.68898 Y-0.77264
G01 X1.68986 Y-0.78123
G01 X1.69257 Y-0.78987
G01 X1.69725 Y-0.79809
G01 X1.70301 Y-0.80453
G01 X1.71028 Y-0.80992
G01 X1.71852 Y-0.81368
G01 X1.72817 Y-0.81573
G01 X1.73722 Y-0.81564
G01 X1.74567 Y-0.81383
G01 X1.75428 Y-0.80992
G01 X1.76155 Y-0.80453
G01 X1.76732 Y-0.79809
G01 X1.77199 Y-0.78987
G01 X1.77471 Y-0.78123
G01 X1.77559 Y-0.77264
G01 X1.77471 Y-0.76404
G01 X1.77199 Y-0.75541
G01 X1.76732 Y-0.74718
G01 X1.76155 Y-0.74074
G01 X1.75357 Y-0.73494
G01 X1.74567 Y-0.73145
G01 X1.73640 Y-0.72955
G01 X1.72735 Y-0.72963
G01 X1.71890 Y-0.73145
G01 X1.71028 Y-0.73536
G01 X1.70301 Y-0.74074
G01 X1.69725 Y-0.74718
G01 X1.69257 Y-0.75541
G01 X1.68986 Y-0.76404
G01 X1.68898 Y-0.77264
G04 P0 ( dwell for no time -- G64 should not smooth over this point )
G00 Z0.19685 ( retract )

G00 X1.94488 Y-0.59547 ( rapid move to begin. )
G01 F0.98425
G01 Z-0.01575
G04 P0 ( dwell for no time -- G64 should not smooth over this point )
G01 F1.96850
G01 X1.94488 Y-0.59547
G01 X1.94576 Y-0.58688
G01 X1.94848 Y-0.57824
G01 X1.95315 Y-0.57002
G01 X1.95892 Y-0.56358
G01 X1.96619 Y-0.55819
G01 X1.97481 Y-0.55428
G01 X1.98325 Y-0.55247
G01 X1.99230 Y-0.55238
G01 X2.00196 Y-0.55443
G01 X2.00984 Y-0.55797
G01 X2.01746 Y-0.56358
G01 X2.02323 Y-0.57002
G01 X2.02775 Y-0.57786
G01 X2.03044 Y-0.58607
G01 X2.03150 Y-0.59547
G01 X2.03055 Y-0.60448
G01 X2.02790 Y-0.61270
G01 X2.02323 Y-0.62093
G01 X2.01746 Y-0.62736
G01 X2.01019 Y-0.63275
G01 X2.00157 Y-0.63666
G01 X1.99312 Y-0.63848
G01 X1.98407 Y-0.63856
G01 X1.97442 Y-0.63651
G01 X1.96619 Y-0.63275
G01 X1.95892 Y-0.62736
G01 X1.95315 Y-0.62093
G01 X1.94848 Y-0.61270
G01 X1.94576 Y-0.60407
G01 X1.94488 Y-0.59547
G04 P0 ( dwell for no time -- G64 should not smooth over this point )
G00 Z0.19685 ( retract )

G00 X1.66969 Y0.35433 ( rapid move to begin. )
G01 F0.98425
G01 Z-0.01575
G04 P0 ( dwell for no time -- G64 should not smooth over this point )
G01 F1.96850
G01 X1.66969 Y0.35433
G01 X1.67044 Y0.36170
G01 X1.67277 Y0.36916
G01 X1.67683 Y0.37631
G01 X1.68177 Y0.38183
G01 X1.68804 Y0.38650
G01 X1.69514 Y0.38975
G01 X1.70359 Y0.39155
G01 X1.71100 Y0.39153
G01 X1.71903 Y0.38975
G01 X1.72613 Y0.38650
G01 X1.73211 Y0.38212
G01 X1.73757 Y0.37597
G01 X1.74125 Y0.36954
G01 X1.74356 Y0.36250
G01 X1.74447 Y0.35474
G01 X1.74356 Y0.34616
G01 X1.74107 Y0.33875
G01 X1.73734 Y0.33235
G01 X1.73071 Y0.32549
G01 X1.73071 Y-0.42112
G01 X2.00760 Y-0.69857
G01 X2.01014 Y-0.70333
G01 X2.01141 Y-0.70778
G01 X2.01181 Y-0.73654
G01 X2.01746 Y-0.74074
G01 X2.02297 Y-0.74686
G01 X2.02756 Y-0.75466
G01 X2.03044 Y-0.76323
G01 X2.03150 Y-0.77264
G01 X2.03044 Y-0.78204
G01 X2.02756 Y-0.79062
G01 X2.02323 Y-0.79809
G01 X2.01746 Y-0.80453
G01 X2.01019 Y-0.80992
G01 X2.00157 Y-0.81383
G01 X1.99312 Y-0.81564
G01 X1.98407 Y-0.81573
G01 X1.97481 Y-0.81383
G01 X1.96690 Y-0.81033
G01 X1.95953 Y-0.80508
G01 X1.95341 Y-0.79841
G01 X1.94848 Y-0.78987
G01 X1.94593 Y-0.78204
G01 X1.94490 Y-0.77305
G01 X1.94593 Y-0.76323
G01 X1.94881 Y-0.75466
G01 X1.95315 Y-0.74718
G01 X1.95892 Y-0.74074
G01 X1.96457 Y-0.73654
G01 X1.96457 Y-0.72179
G01 X1.69038 Y-0.44761
G01 X1.68725 Y-0.44370
G01 X1.68401 Y-0.43589
G01 X1.68346 Y-0.43090
G01 X1.68346 Y0.32549
G01 X1.67709 Y0.33203
G01 X1.67292 Y0.33912
G01 X1.67044 Y0.34696
G01 X1.66969 Y0.35433
G04 P0 ( dwell for no time -- G64 should not smooth over this point )
G00 Z0.19685 ( retract )

G00 X1.76968 Y0.35433 ( rapid move to begin. )
G01 F0.98425
G01 Z-0.01575
G04 P0 ( dwell for no time -- G64 should not smooth over this point )
G01 F1.96850
G01 X1.76968 Y0.35433
G01 X1.77061 Y0.34616
G01 X1.77310 Y0.33875
G01 X1.77683 Y0.33235
G01 X1.78346 Y0.32549
G01 X1.78346 Y-0.42913
G01 X1.78401 Y-0.43412
G01 X1.78725 Y-0.44193
G01 X1.79038 Y-0.44584
G01 X1.87306 Y-0.52851
G01 X1.87633 Y-0.53122
G01 X1.88037 Y-0.53347
G01 X1.88478 Y-0.53489
G01 X1.88976 Y-0.53543
G01 X2.01128 Y-0.53543
G01 X2.04331 Y-0.56746
G01 X2.04331 Y-1.46659
G01 X1.99697 Y-1.51293
G01 X1.99230 Y-1.51203
G01 X1.98407 Y-1.51203
G01 X1.97520 Y-1.51382
G01 X1.96653 Y-1.51761
G01 X1.95921 Y-1.52293
G01 X1.95315 Y-1.52966
G01 X1.94881 Y-1.53714
G01 X1.94583 Y-1.54611
G01 X1.94490 Y-1.55471
G01 X1.94583 Y-1.56412
G01 X1.94848 Y-1.57235
G01 X1.95315 Y-1.58057
G01 X1.95921 Y-1.58730
G01 X1.96653 Y-1.59262
G01 X1.97520 Y-1.59641
G01 X1.98366 Y-1.59819
G01 X1.99312 Y-1.59812
G01 X2.00157 Y-1.59631
G01 X2.01019 Y-1.59240
G01 X2.01717 Y-1.58730
G01 X2.02323 Y-1.58057
G01 X2.02790 Y-1.57235
G01 X2.03055 Y-1.56412
G01 X2.03147 Y-1.55471
G01 X2.03054 Y-1.54617
G01 X2.08389 Y-1.49279
G01 X2.08677 Y-1.48917
G01 X2.08888 Y-1.48505
G01 X2.09053 Y-1.47676
G01 X2.09015 Y-0.55345
G01 X2.08859 Y-0.54829
G01 X2.08634 Y-0.54424
G01 X2.08363 Y-0.54097
G01 X2.03777 Y-0.49511
G01 X2.03385 Y-0.49197
G01 X2.02974 Y-0.48986
G01 X2.02529 Y-0.48859
G01 X2.02106 Y-0.48819
G01 X1.89955 Y-0.48819
G01 X1.83071 Y-0.41935
G01 X1.83071 Y0.32549
G01 X1.83735 Y0.33235
G01 X1.84107 Y0.33875
G01 X1.84356 Y0.34616
G01 X1.84447 Y0.35474
G01 X1.84356 Y0.36250
G01 X1.84140 Y0.36916
G01 X1.83735 Y0.37631
G01 X1.83240 Y0.38183
G01 X1.82613 Y0.38650
G01 X1.81903 Y0.38975
G01 X1.81100 Y0.39153
G01 X1.80359 Y0.39155
G01 X1.79514 Y0.38975
G01 X1.78804 Y0.38650
G01 X1.78177 Y0.38183
G01 X1.77683 Y0.37631
G01 X1.77277 Y0.36916
G01 X1.77044 Y0.36170
G01 X1.76968 Y0.35433
G04 P0 ( dwell for no time -- G64 should not smooth over this point )
G00 Z0.19685 ( retract )

G00 X1.86969 Y0.35433 ( rapid move to begin. )
G01 F0.98425
G01 Z-0.01575
G04 P0 ( dwell for no time -- G64 should not smooth over this point )
G01 F1.96850
G01 X1.86969 Y0.35433
G01 X1.87061 Y0.34616
G01 X1.87311 Y0.33875
G01 X1.87683 Y0.33235
G01 X1.88346 Y0.32549
G01 X1.88346 Y-0.44562
G01 X1.88401 Y-0.45060
G01 X1.88543 Y-0.45500
G01 X1.88767 Y-0.45905
G01 X1.89752 Y-0.46946
G01 X1.90079 Y-0.47217
G01 X1.90484 Y-0.47441
G01 X1.91000 Y-0.47598
G01 X2.05714 Y-0.47638
G01 X2.10236 Y-0.52160
G01 X2.10236 Y-2.19494
G01 X1.99697 Y-2.30033
G01 X1.99272 Y-2.29945
G01 X1.98366 Y-2.29945
G01 X1.97520 Y-2.30123
G01 X1.96690 Y-2.30483
G01 X1.95892 Y-2.31063
G01 X1.95315 Y-2.31706
G01 X1.94881 Y-2.32454
G01 X1.94593 Y-2.33312
G01 X1.94490 Y-2.34293
G01 X1.94593 Y-2.35192
G01 X1.94848 Y-2.35975
G01 X1.95315 Y-2.36797
G01 X1.95953 Y-2.37496
G01 X1.96690 Y-2.38021
G01 X1.97442 Y-2.38356
G01 X1.98325 Y-2.38552
G01 X1.99230 Y-2.38561
G01 X2.00157 Y-2.38371
G01 X2.00948 Y-2.38021
G01 X2.01685 Y-2.37496
G01 X2.02297 Y-2.36829
G01 X2.02775 Y-2.36013
G01 X2.03044 Y-2.35192
G01 X2.03147 Y-2.34293
G01 X2.03054 Y-2.33357
G01 X2.14269 Y-2.22143
G01 X2.14540 Y-2.21816
G01 X2.14764 Y-2.21411
G01 X2.14906 Y-2.20971
G01 X2.14959 Y-2.20511
G01 X2.14961 Y-0.51181
G01 X2.14906 Y-0.50683
G01 X2.14764 Y-0.50242
G01 X2.14540 Y-0.49838
G01 X2.14269 Y-0.49511
G01 X2.08363 Y-0.43605
G01 X2.07972 Y-0.43291
G01 X2.07560 Y-0.43080
G01 X2.07115 Y-0.42953
G01 X2.06693 Y-0.42913
G01 X1.93071 Y-0.42913
G01 X1.93071 Y0.32549
G01 X1.93735 Y0.33235
G01 X1.94107 Y0.33875
G01 X1.94356 Y0.34616
G01 X1.94447 Y0.35474
G01 X1.94356 Y0.36250
G01 X1.94140 Y0.36916
G01 X1.93735 Y0.37631
G01 X1.93240 Y0.38183
G01 X1.92613 Y0.38650
G01 X1.91903 Y0.38975
G01 X1.91100 Y0.39153
G01 X1.90359 Y0.39155
G01 X1.89514 Y0.38975
G01 X1.88804 Y0.38650
G01 X1.88177 Y0.38183
G01 X1.87683 Y0.37631
G01 X1.87277 Y0.36916
G01 X1.87044 Y0.36170
G01 X1.86969 Y0.35433
G04 P0 ( dwell for no time -- G64 should not smooth over this point )
G00 Z0.19685 ( retract )

G00 X1.96968 Y0.35433 ( rapid move to begin. )
G01 F0.98425
G01 Z-0.01575
G04 P0 ( dwell for no time -- G64 should not smooth over this point )
G01 F1.96850
G01 X1.96968 Y0.35433
G01 X1.97061 Y0.34616
G01 X1.97311 Y0.33875
G01 X1.97683 Y0.33235
G01 X1.98346 Y0.32549
G01 X1.98346 Y-0.27559
G01 X1.98386 Y-0.27982
G01 X1.98513 Y-0.28427
G01 X1.98768 Y-0.28902
G01 X2.01713 Y-0.31904
G01 X2.01889 Y-0.32624
G01 X2.02114 Y-0.33028
G01 X2.02385 Y-0.33355
G01 X2.21881 Y-0.52851
G01 X2.22208 Y-0.53122
G01 X2.22612 Y-0.53347
G01 X2.23053 Y-0.53489
G01 X2.23551 Y-0.53543
G01 X2.56558 Y-0.53543
G01 X2.75197 Y-0.72182
G01 X2.75197 Y-0.73162
G01 X2.74632 Y-0.73582
G01 X2.74055 Y-0.74226
G01 X2.73588 Y-0.75049
G01 X2.73317 Y-0.75912
G01 X2.73228 Y-0.76772
G01 X2.73323 Y-0.77672
G01 X2.73621 Y-0.78570
G01 X2.74081 Y-0.79349
G01 X2.74693 Y-0.80016
G01 X2.75394 Y-0.80522
G01 X2.76182 Y-0.80876
G01 X2.77066 Y-0.81072
G01 X2.77970 Y-0.81081
G01 X2.78857 Y-0.80901
G01 X2.79759 Y-0.80500
G01 X2.80486 Y-0.79961
G01 X2.81037 Y-0.79349
G01 X2.81497 Y-0.78570
G01 X2.81795 Y-0.77672
G01 X2.81890 Y-0.76772
G01 X2.81784 Y-0.75831
G01 X2.81497 Y-0.74973
G01 X2.81037 Y-0.74194
G01 X2.80486 Y-0.73582
G01 X2.79921 Y-0.73162
G01 X2.79881 Y-0.70781
G01 X2.79754 Y-0.70336
G01 X2.79543 Y-0.69925
G01 X2.79229 Y-0.69534
G01 X2.58880 Y-0.49240
G01 X2.58404 Y-0.48986
G01 X2.57959 Y-0.48859
G01 X2.57536 Y-0.48819
G01 X2.24530 Y-0.48819
G01 X2.06398 Y-0.30687
G01 X2.06250 Y-0.30038
G01 X2.05996 Y-0.29562
G01 X2.03071 Y-0.26581
G01 X2.03071 Y0.32549
G01 X2.03735 Y0.33235
G01 X2.04107 Y0.33875
G01 X2.04367 Y0.34655
G01 X2.04447 Y0.35474
G01 X2.04367 Y0.36211
G01 X2.04140 Y0.36916
G01 X2.03735 Y0.37631
G01 X2.03240 Y0.38183
G01 X2.02579 Y0.38672
G01 X2.01903 Y0.38975
G01 X2.01140 Y0.39146
G01 X2.00359 Y0.39155
G01 X1.99514 Y0.38975
G01 X1.98804 Y0.38650
G01 X1.98177 Y0.38183
G01 X1.97683 Y0.37631
G01 X1.97277 Y0.36916
G01 X1.97044 Y0.36170
G01 X1.96968 Y0.35433
G04 P0 ( dwell for no time -- G64 should not smooth over this point )
G00 Z0.19685 ( retract )

G00 X2.06971 Y0.35392 ( rapid move to begin. )
G01 F0.98425
G01 Z-0.01575
G04 P0 ( dwell for no time -- G64 should not smooth over this point )
G01 F1.96850
G01 X2.06971 Y0.35392
G01 X2.07050 Y0.36211
G01 X2.07277 Y0.36916
G01 X2.07683 Y0.37631
G01 X2.08177 Y0.38183
G01 X2.08839 Y0.38672
G01 X2.09514 Y0.38975
G01 X2.10359 Y0.39155
G01 X2.11140 Y0.39146
G01 X2.11903 Y0.38975
G01 X2.12579 Y0.38672
G01 X2.13179 Y0.38238
G01 X2.13757 Y0.37597
G01 X2.14140 Y0.36916
G01 X2.14373 Y0.36170
G01 X2.14447 Y0.35474
G01 X2.14373 Y0.34696
G01 X2.14140 Y0.33950
G01 X2.13734 Y0.33235
G01 X2.13071 Y0.32549
G01 X2.13071 Y-0.26581
G01 X2.15996 Y-0.29562
G01 X2.16250 Y-0.30038
G01 X2.16398 Y-0.30687
G01 X2.28624 Y-0.42913
G01 X2.75856 Y-0.42953
G01 X2.76372 Y-0.43110
G01 X2.76776 Y-0.43334
G01 X2.77103 Y-0.43605
G01 X2.87103 Y-0.53605
G01 X2.87417 Y-0.53996
G01 X2.87628 Y-0.54408
G01 X2.87756 Y-0.54853
G01 X2.87795 Y-0.55275
G01 X2.87793 Y-1.47676
G01 X2.87740 Y-1.48136
G01 X2.87599 Y-1.48577
G01 X2.87129 Y-1.49279
G01 X2.81796 Y-1.54616
G01 X2.81888 Y-1.55553
G01 X2.81795 Y-1.56412
G01 X2.81530 Y-1.57235
G01 X2.81063 Y-1.58057
G01 X2.80425 Y-1.58756
G01 X2.79688 Y-1.59281
G01 X2.78897 Y-1.59631
G01 X2.77970 Y-1.59821
G01 X2.77066 Y-1.59812
G01 X2.76261 Y-1.59641
G01 X2.75430 Y-1.59281
G01 X2.74693 Y-1.58756
G01 X2.74055 Y-1.58057
G01 X2.73588 Y-1.57235
G01 X2.73323 Y-1.56412
G01 X2.73231 Y-1.55471
G01 X2.73323 Y-1.54611
G01 X2.73621 Y-1.53714
G01 X2.74055 Y-1.52966
G01 X2.74661 Y-1.52293
G01 X2.75430 Y-1.51743
G01 X2.76261 Y-1.51382
G01 X2.77148 Y-1.51203
G01 X2.77970 Y-1.51203
G01 X2.78437 Y-1.51293
G01 X2.83071 Y-1.46659
G01 X2.83071 Y-0.56254
G01 X2.74455 Y-0.47638
G01 X2.27646 Y-0.47638
G01 X2.27223 Y-0.47598
G01 X2.26778 Y-0.47471
G01 X2.26366 Y-0.47259
G01 X2.25975 Y-0.46946
G01 X2.12359 Y-0.33327
G01 X2.11889 Y-0.32624
G01 X2.11713 Y-0.31904
G01 X2.08767 Y-0.28902
G01 X2.08513 Y-0.28427
G01 X2.08348 Y-0.27598
G01 X2.08346 Y0.32549
G01 X2.07683 Y0.33235
G01 X2.07310 Y0.33875
G01 X2.07050 Y0.34655
G01 X2.06971 Y0.35392
G04 P0 ( dwell for no time -- G64 should not smooth over this point )
G00 Z0.19685 ( retract )

G00 X2.16971 Y0.35392 ( rapid move to begin. )
G01 F0.98425
G01 Z-0.01575
G04 P0 ( dwell for no time -- G64 should not smooth over this point )
G01 F1.96850
G01 X2.16971 Y0.35392
G01 X2.17050 Y0.36211
G01 X2.17277 Y0.36916
G01 X2.17683 Y0.37631
G01 X2.18177 Y0.38183
G01 X2.18838 Y0.38672
G01 X2.19514 Y0.38975
G01 X2.20359 Y0.39155
G01 X2.21140 Y0.39146
G01 X2.21903 Y0.38975
G01 X2.22579 Y0.38672
G01 X2.23179 Y0.38238
G01 X2.23757 Y0.37597
G01 X2.24140 Y0.36916
G01 X2.24374 Y0.36170
G01 X2.24447 Y0.35474
G01 X2.24374 Y0.34696
G01 X2.24140 Y0.33950
G01 X2.23734 Y0.33235
G01 X2.23071 Y0.32549
G01 X2.23071 Y-0.26581
G01 X2.25725 Y-0.29235
G01 X2.26039 Y-0.29626
G01 X2.26250 Y-0.30038
G01 X2.26377 Y-0.30483
G01 X2.26417 Y-0.32355
G01 X2.31070 Y-0.37008
G01 X2.79527 Y-0.37008
G01 X2.80026 Y-0.37062
G01 X2.80807 Y-0.37386
G01 X2.81198 Y-0.37700
G01 X2.93009 Y-0.49511
G01 X2.93323 Y-0.49902
G01 X2.93646 Y-0.50683
G01 X2.93701 Y-0.51181
G01 X2.93699 Y-2.20511
G01 X2.93646 Y-2.20971
G01 X2.93504 Y-2.21411
G01 X2.93280 Y-2.21816
G01 X2.93009 Y-2.22143
G01 X2.81796 Y-2.33356
G01 X2.81888 Y-2.34211
G01 X2.81801 Y-2.35112
G01 X2.81515 Y-2.36013
G01 X2.81085 Y-2.36763
G01 X2.80486 Y-2.37441
G01 X2.79759 Y-2.37980
G01 X2.78857 Y-2.38381
G01 X2.78052 Y-2.38552
G01 X2.77148 Y-2.38561
G01 X2.76182 Y-2.38356
G01 X2.75359 Y-2.37980
G01 X2.74693 Y-2.37496
G01 X2.74081 Y-2.36829
G01 X2.73603 Y-2.36013
G01 X2.73317 Y-2.35112
G01 X2.73231 Y-2.34293
G01 X2.73317 Y-2.33392
G01 X2.73621 Y-2.32454
G01 X2.74055 Y-2.31706
G01 X2.74632 Y-2.31063
G01 X2.75430 Y-2.30483
G01 X2.76221 Y-2.30133
G01 X2.77066 Y-2.29951
G01 X2.78012 Y-2.29945
G01 X2.78437 Y-2.30033
G01 X2.88976 Y-2.19494
G01 X2.88976 Y-0.52160
G01 X2.78549 Y-0.41732
G01 X2.29669 Y-0.41692
G01 X2.29153 Y-0.41536
G01 X2.28748 Y-0.41311
G01 X2.28421 Y-0.41040
G01 X2.22359 Y-0.34975
G01 X2.22071 Y-0.34613
G01 X2.21748 Y-0.33832
G01 X2.21693 Y-0.33333
G01 X2.21693 Y-0.31884
G01 X2.18768 Y-0.28902
G01 X2.18513 Y-0.28427
G01 X2.18348 Y-0.27598
G01 X2.18346 Y0.32549
G01 X2.17683 Y0.33235
G01 X2.17311 Y0.33875
G01 X2.17050 Y0.34655
G01 X2.16971 Y0.35392
G04 P0 ( dwell for no time -- G64 should not smooth over this point )
G00 Z0.19685 ( retract )

G00 X2.26971 Y0.35392 ( rapid move to begin. )
G01 F0.98425
G01 Z-0.01575
G04 P0 ( dwell for no time -- G64 should not smooth over this point )
G01 F1.96850
G01 X2.26971 Y0.35392
G01 X2.27050 Y0.36211
G01 X2.27277 Y0.36916
G01 X2.27709 Y0.37663
G01 X2.28238 Y0.38238
G01 X2.28838 Y0.38672
G01 X2.29514 Y0.38975
G01 X2.30277 Y0.39146
G01 X2.31058 Y0.39155
G01 X2.31825 Y0.39001
G01 X2.32613 Y0.38650
G01 X2.33240 Y0.38183
G01 X2.33735 Y0.37631
G01 X2.34140 Y0.36916
G01 X2.34367 Y0.36211
G01 X2.34447 Y0.35392
G01 X2.34367 Y0.34655
G01 X2.34140 Y0.33950
G01 X2.33735 Y0.33235
G01 X2.33071 Y0.32549
G01 X2.33071 Y-0.25006
G01 X2.39167 Y-0.31102
G01 X3.18560 Y-0.31102
G01 X3.18982 Y-0.31142
G01 X3.19427 Y-0.31269
G01 X3.19839 Y-0.31480
G01 X3.20230 Y-0.31794
G01 X3.57995 Y-0.69562
G01 X3.58465 Y-0.70265
G01 X3.58622 Y-0.70781
G01 X3.58661 Y-0.73162
G01 X3.59226 Y-0.73582
G01 X3.59803 Y-0.74226
G01 X3.60256 Y-0.75010
G01 X3.60542 Y-0.75912
G01 X3.60630 Y-0.76772
G01 X3.60535 Y-0.77672
G01 X3.60237 Y-0.78570
G01 X3.59777 Y-0.79349
G01 X3.59165 Y-0.80016
G01 X3.58428 Y-0.80541
G01 X3.57637 Y-0.80890
G01 X3.56711 Y-0.81081
G01 X3.55806 Y-0.81072
G01 X3.54961 Y-0.80890
G01 X3.54099 Y-0.80500
G01 X3.53372 Y-0.79961
G01 X3.52795 Y-0.79317
G01 X3.52328 Y-0.78495
G01 X3.52063 Y-0.77672
G01 X3.51971 Y-0.76731
G01 X3.52063 Y-0.75871
G01 X3.52362 Y-0.74973
G01 X3.52821 Y-0.74194
G01 X3.53372 Y-0.73582
G01 X3.53937 Y-0.73162
G01 X3.53937 Y-0.72182
G01 X3.17581 Y-0.35827
G01 X2.38189 Y-0.35827
G01 X2.37766 Y-0.35787
G01 X2.37321 Y-0.35660
G01 X2.36910 Y-0.35448
G01 X2.36547 Y-0.35161
G01 X2.29038 Y-0.27654
G01 X2.28768 Y-0.27328
G01 X2.28543 Y-0.26923
G01 X2.28386 Y-0.26407
G01 X2.28346 Y0.32549
G01 X2.27683 Y0.33235
G01 X2.27311 Y0.33875
G01 X2.27050 Y0.34655
G01 X2.26971 Y0.35392
G04 P0 ( dwell for no time -- G64 should not smooth over this point )
G00 Z0.19685 ( retract )

G00 X2.36971 Y0.35392 ( rapid move to begin. )
G01 F0.98425
G01 Z-0.01575
G04 P0 ( dwell for no time -- G64 should not smooth over this point )
G01 F1.96850
G01 X2.36971 Y0.35392
G01 X2.37050 Y0.36211
G01 X2.37277 Y0.36916
G01 X2.37683 Y0.37631
G01 X2.38177 Y0.38183
G01 X2.38838 Y0.38672
G01 X2.39514 Y0.38975
G01 X2.40359 Y0.39155
G01 X2.41140 Y0.39146
G01 X2.41903 Y0.38975
G01 X2.42579 Y0.38672
G01 X2.43179 Y0.38238
G01 X2.43757 Y0.37597
G01 X2.44140 Y0.36916
G01 X2.44374 Y0.36170
G01 X2.44447 Y0.35474
G01 X2.44374 Y0.34696
G01 X2.44140 Y0.33950
G01 X2.43735 Y0.33235
G01 X2.43071 Y0.32549
G01 X2.43071 Y-0.23195
G01 X2.45073 Y-0.25197
G01 X3.36456 Y-0.25197
G01 X3.36955 Y-0.25251
G01 X3.37736 Y-0.25575
G01 X3.38127 Y-0.25888
G01 X3.65843 Y-0.53605
G01 X3.66157 Y-0.53996
G01 X3.66481 Y-0.54777
G01 X3.66535 Y-0.55275
G01 X3.66533 Y-1.47676
G01 X3.66481 Y-1.48136
G01 X3.66339 Y-1.48577
G01 X3.65869 Y-1.49279
G01 X3.60536 Y-1.54616
G01 X3.60628 Y-1.55553
G01 X3.60535 Y-1.56412
G01 X3.60270 Y-1.57235
G01 X3.59777 Y-1.58089
G01 X3.59197 Y-1.58730
G01 X3.58499 Y-1.59240
G01 X3.57637 Y-1.59631
G01 X3.56711 Y-1.59821
G01 X3.55888 Y-1.59821
G01 X3.55001 Y-1.59641
G01 X3.54170 Y-1.59281
G01 X3.53401 Y-1.58730
G01 X3.52773 Y-1.58023
G01 X3.52328 Y-1.57235
G01 X3.52074 Y-1.56452
G01 X3.51971 Y-1.55471
G01 X3.52063 Y-1.54611
G01 X3.52362 Y-1.53714
G01 X3.52795 Y-1.52966
G01 X3.53401 Y-1.52293
G01 X3.54170 Y-1.51743
G01 X3.55001 Y-1.51382
G01 X3.55888 Y-1.51203
G01 X3.56752 Y-1.51205
G01 X3.57177 Y-1.51293
G01 X3.61811 Y-1.46659
G01 X3.61811 Y-0.56254
G01 X3.35478 Y-0.29921
G01 X2.44094 Y-0.29921
G01 X2.43672 Y-0.29881
G01 X2.43227 Y-0.29754
G01 X2.42751 Y-0.29500
G01 X2.39012 Y-0.25815
G01 X2.38543 Y-0.25112
G01 X2.38401 Y-0.24671
G01 X2.38348 Y-0.24212
G01 X2.38346 Y0.32549
G01 X2.37683 Y0.33235
G01 X2.37310 Y0.33875
G01 X2.37050 Y0.34655
G01 X2.36971 Y0.35392
G04 P0 ( dwell for no time -- G64 should not smooth over this point )
G00 Z0.19685 ( retract )

G00 X2.46971 Y0.35392 ( rapid move to begin. )
G01 F0.98425
G01 Z-0.01575
G04 P0 ( dwell for no time -- G64 should not smooth over this point )
G01 F1.96850
G01 X2.46971 Y0.35392
G01 X2.47050 Y0.36211
G01 X2.47277 Y0.36916
G01 X2.47683 Y0.37631
G01 X2.48177 Y0.38183
G01 X2.48839 Y0.38672
G01 X2.49514 Y0.38975
G01 X2.50359 Y0.39155
G01 X2.51140 Y0.39146
G01 X2.51903 Y0.38975
G01 X2.52579 Y0.38672
G01 X2.53179 Y0.38238
G01 X2.53757 Y0.37597
G01 X2.54140 Y0.36916
G01 X2.54373 Y0.36170
G01 X2.54447 Y0.35474
G01 X2.54373 Y0.34696
G01 X2.54140 Y0.33950
G01 X2.53735 Y0.33235
G01 X2.53071 Y0.32549
G01 X2.53071 Y-0.16674
G01 X2.55703 Y-0.19291
G01 X3.39370 Y-0.19291
G01 X3.39868 Y-0.19346
G01 X3.40649 Y-0.19669
G01 X3.41040 Y-0.19983
G01 X3.71749 Y-0.50692
G01 X3.72063 Y-0.51083
G01 X3.72274 Y-0.51495
G01 X3.72401 Y-0.51940
G01 X3.72441 Y-0.52362
G01 X3.72439 Y-2.20511
G01 X3.72386 Y-2.20971
G01 X3.72245 Y-2.21411
G01 X3.72020 Y-2.21816
G01 X3.71749 Y-2.22143
G01 X3.60536 Y-2.33356
G01 X3.60628 Y-2.34211
G01 X3.60542 Y-2.35112
G01 X3.60237 Y-2.36050
G01 X3.59803 Y-2.36797
G01 X3.59226 Y-2.37441
G01 X3.58499 Y-2.37980
G01 X3.57676 Y-2.38356
G01 X3.56711 Y-2.38561
G01 X3.55806 Y-2.38552
G01 X3.54961 Y-2.38371
G01 X3.54099 Y-2.37980
G01 X3.53372 Y-2.37441
G01 X3.52821 Y-2.36829
G01 X3.52343 Y-2.36013
G01 X3.52057 Y-2.35112
G01 X3.51971 Y-2.34293
G01 X3.52057 Y-2.33392
G01 X3.52362 Y-2.32454
G01 X3.52795 Y-2.31706
G01 X3.53372 Y-2.31063
G01 X3.54170 Y-2.30483
G01 X3.54961 Y-2.30133
G01 X3.55806 Y-2.29951
G01 X3.56752 Y-2.29945
G01 X3.57177 Y-2.30033
G01 X3.67717 Y-2.19494
G01 X3.67717 Y-0.53341
G01 X3.38391 Y-0.24016
G01 X2.54724 Y-0.24016
G01 X2.54302 Y-0.23976
G01 X2.53857 Y-0.23849
G01 X2.53381 Y-0.23594
G01 X2.50499 Y-0.20769
G01 X2.49770 Y-0.20591
G01 X2.49067 Y-0.20121
G01 X2.48725 Y-0.19704
G01 X2.48513 Y-0.19293
G01 X2.48386 Y-0.18848
G01 X2.48346 Y0.32549
G01 X2.47683 Y0.33235
G01 X2.47310 Y0.33875
G01 X2.47050 Y0.34655
G01 X2.46971 Y0.35392
G04 P0 ( dwell for no time -- G64 should not smooth over this point )
G00 Z0.19685 ( retract )

G00 X2.56971 Y0.35392 ( rapid move to begin. )
G01 F0.98425
G01 Z-0.01575
G04 P0 ( dwell for no time -- G64 should not smooth over this point )
G01 F1.96850
G01 X2.56971 Y0.35392
G01 X2.57050 Y0.36211
G01 X2.57277 Y0.36916
G01 X2.57709 Y0.37663
G01 X2.58238 Y0.38238
G01 X2.58839 Y0.38672
G01 X2.59514 Y0.38975
G01 X2.60277 Y0.39146
G01 X2.61058 Y0.39155
G01 X2.61825 Y0.39001
G01 X2.62613 Y0.38650
G01 X2.63240 Y0.38183
G01 X2.63734 Y0.37631
G01 X2.64140 Y0.36916
G01 X2.64367 Y0.36211
G01 X2.64447 Y0.35392
G01 X2.64367 Y0.34655
G01 X2.64140 Y0.33950
G01 X2.63734 Y0.33235
G01 X2.63071 Y0.32549
G01 X2.63071 Y0.04120
G01 X2.80576 Y-0.13386
G01 X3.79583 Y-0.13386
G01 X3.80082 Y-0.13440
G01 X3.80522 Y-0.13582
G01 X3.80927 Y-0.13807
G01 X3.81254 Y-0.14077
G01 X4.36736 Y-0.69562
G01 X4.37205 Y-0.70265
G01 X4.37362 Y-0.70781
G01 X4.37401 Y-0.73162
G01 X4.37966 Y-0.73582
G01 X4.38565 Y-0.74261
G01 X4.38996 Y-0.75010
G01 X4.39275 Y-0.75871
G01 X4.39368 Y-0.76731
G01 X4.39275 Y-0.77672
G01 X4.38996 Y-0.78533
G01 X4.38565 Y-0.79283
G01 X4.37966 Y-0.79961
G01 X4.37239 Y-0.80500
G01 X4.36378 Y-0.80890
G01 X4.35533 Y-0.81072
G01 X4.34628 Y-0.81081
G01 X4.33701 Y-0.80890
G01 X4.32839 Y-0.80500
G01 X4.32112 Y-0.79961
G01 X4.31513 Y-0.79283
G01 X4.31083 Y-0.78533
G01 X4.30803 Y-0.77672
G01 X4.30711 Y-0.76731
G01 X4.30803 Y-0.75871
G01 X4.31102 Y-0.74973
G01 X4.31562 Y-0.74194
G01 X4.32112 Y-0.73582
G01 X4.32677 Y-0.73162
G01 X4.32677 Y-0.72182
G01 X3.78605 Y-0.18110
G01 X2.79598 Y-0.18110
G01 X2.79100 Y-0.18055
G01 X2.78319 Y-0.17732
G01 X2.77928 Y-0.17418
G01 X2.59038 Y0.01471
G01 X2.58725 Y0.01862
G01 X2.58513 Y0.02274
G01 X2.58386 Y0.02719
G01 X2.58346 Y0.03141
G01 X2.58346 Y0.32549
G01 X2.57683 Y0.33235
G01 X2.57310 Y0.33875
G01 X2.57050 Y0.34655
G01 X2.56971 Y0.35392
G04 P0 ( dwell for no time -- G64 should not smooth over this point )
G00 Z0.19685 ( retract )

G00 X2.66971 Y0.35392 ( rapid move to begin. )
G01 F0.98425
G01 Z-0.01575
G04 P0 ( dwell for no time -- G64 should not smooth over this point )
G01 F1.96850
G01 X2.66971 Y0.35392
G01 X2.67050 Y0.36211
G01 X2.67277 Y0.36916
G01 X2.67709 Y0.37663
G01 X2.68238 Y0.38238
G01 X2.68838 Y0.38672
G01 X2.69514 Y0.38975
G01 X2.70277 Y0.39146
G01 X2.71058 Y0.39155
G01 X2.71825 Y0.39001
G01 X2.72613 Y0.38650
G01 X2.73240 Y0.38183
G01 X2.73734 Y0.37631
G01 X2.74140 Y0.36916
G01 X2.74367 Y0.36211
G01 X2.74447 Y0.35392
G01 X2.74367 Y0.34655
G01 X2.74140 Y0.33950
G01 X2.73734 Y0.33235
G01 X2.73071 Y0.32549
G01 X2.73071 Y0.08852
G01 X2.75045 Y0.06878
G01 X2.75456 Y0.06845
G01 X2.75939 Y0.06693
G01 X2.76343 Y0.06469
G01 X2.76670 Y0.06198
G01 X2.90348 Y-0.07480
G01 X3.97480 Y-0.07480
G01 X3.97978 Y-0.07535
G01 X3.98759 Y-0.07858
G01 X3.99150 Y-0.08172
G01 X4.44610 Y-0.53634
G01 X4.44897 Y-0.53996
G01 X4.45109 Y-0.54408
G01 X4.45236 Y-0.54853
G01 X4.45275 Y-0.55275
G01 X4.45274 Y-1.47676
G01 X4.45221 Y-1.48136
G01 X4.45079 Y-1.48577
G01 X4.44610 Y-1.49279
G01 X4.39276 Y-1.54616
G01 X4.39368 Y-1.55553
G01 X4.39275 Y-1.56412
G01 X4.39010 Y-1.57235
G01 X4.38565 Y-1.58023
G01 X4.37937 Y-1.58730
G01 X4.37168 Y-1.59281
G01 X4.36378 Y-1.59631
G01 X4.35533 Y-1.59812
G01 X4.34546 Y-1.59812
G01 X4.33701 Y-1.59631
G01 X4.32911 Y-1.59281
G01 X4.32112 Y-1.58701
G01 X4.31562 Y-1.58089
G01 X4.31102 Y-1.57310
G01 X4.30803 Y-1.56412
G01 X4.30711 Y-1.55471
G01 X4.30803 Y-1.54611
G01 X4.31102 Y-1.53714
G01 X4.31562 Y-1.52934
G01 X4.32142 Y-1.52293
G01 X4.32911 Y-1.51743
G01 X4.33741 Y-1.51382
G01 X4.34628 Y-1.51203
G01 X4.35451 Y-1.51203
G01 X4.35917 Y-1.51293
G01 X4.40551 Y-1.46659
G01 X4.40551 Y-0.56254
G01 X3.96502 Y-0.12204
G01 X2.89370 Y-0.12204
G01 X2.88871 Y-0.12150
G01 X2.88431 Y-0.12008
G01 X2.88026 Y-0.11783
G01 X2.87699 Y-0.11513
G01 X2.74010 Y0.02177
G01 X2.73599 Y0.02210
G01 X2.73188 Y0.02332
G01 X2.72776 Y0.02543
G01 X2.72413 Y0.02831
G01 X2.69038 Y0.06204
G01 X2.68768 Y0.06531
G01 X2.68543 Y0.06935
G01 X2.68401 Y0.07376
G01 X2.68346 Y0.07874
G01 X2.68346 Y0.32549
G01 X2.67683 Y0.33235
G01 X2.67311 Y0.33875
G01 X2.67050 Y0.34655
G01 X2.66971 Y0.35392
G04 P0 ( dwell for no time -- G64 should not smooth over this point )
G00 Z0.19685 ( retract )

G00 X2.76971 Y0.35392 ( rapid move to begin. )
G01 F0.98425
G01 Z-0.01575
G04 P0 ( dwell for no time -- G64 should not smooth over this point )
G01 F1.96850
G01 X2.76971 Y0.35392
G01 X2.77061 Y0.36250
G01 X2.77311 Y0.36991
G01 X2.77683 Y0.37631
G01 X2.78177 Y0.38183
G01 X2.78804 Y0.38650
G01 X2.79593 Y0.39001
G01 X2.80359 Y0.39155
G01 X2.81058 Y0.39155
G01 X2.81903 Y0.38975
G01 X2.82579 Y0.38672
G01 X2.83240 Y0.38183
G01 X2.83735 Y0.37631
G01 X2.84107 Y0.36991
G01 X2.84374 Y0.36170
G01 X2.84447 Y0.35392
G01 X2.84367 Y0.34655
G01 X2.84140 Y0.33950
G01 X2.83757 Y0.33269
G01 X2.83071 Y0.32549
G01 X2.83071 Y0.11608
G01 X2.95467 Y-0.00787
G01 X3.99139 Y-0.00787
G01 X3.99562 Y-0.00827
G01 X4.00007 Y-0.00954
G01 X4.00418 Y-0.01166
G01 X4.00809 Y-0.01479
G01 X4.50489 Y-0.51159
G01 X4.50803 Y-0.51550
G01 X4.51126 Y-0.52331
G01 X4.51181 Y-0.52829
G01 X4.51179 Y-2.20511
G01 X4.51126 Y-2.20971
G01 X4.50985 Y-2.21411
G01 X4.50760 Y-2.21816
G01 X4.50489 Y-2.22143
G01 X4.39276 Y-2.33356
G01 X4.39368 Y-2.34293
G01 X4.39275 Y-2.35152
G01 X4.39010 Y-2.35975
G01 X4.38517 Y-2.36829
G01 X4.37966 Y-2.37441
G01 X4.37239 Y-2.37980
G01 X4.36338 Y-2.38381
G01 X4.35533 Y-2.38552
G01 X4.34628 Y-2.38561
G01 X4.33663 Y-2.38356
G01 X4.32839 Y-2.37980
G01 X4.32174 Y-2.37496
G01 X4.31513 Y-2.36763
G01 X4.31068 Y-2.35975
G01 X4.30803 Y-2.35152
G01 X4.30711 Y-2.34293
G01 X4.30797 Y-2.33392
G01 X4.31102 Y-2.32454
G01 X4.31562 Y-2.31674
G01 X4.32112 Y-2.31063
G01 X4.32911 Y-2.30483
G01 X4.33701 Y-2.30133
G01 X4.34546 Y-2.29951
G01 X4.35451 Y-2.29943
G01 X4.35917 Y-2.30033
G01 X4.46457 Y-2.19494
G01 X4.46457 Y-0.53808
G01 X3.98161 Y-0.05512
G01 X2.94488 Y-0.05512
G01 X2.93990 Y-0.05457
G01 X2.93549 Y-0.05315
G01 X2.93145 Y-0.05091
G01 X2.92818 Y-0.04820
G01 X2.79038 Y0.08959
G01 X2.78725 Y0.09351
G01 X2.78513 Y0.09762
G01 X2.78386 Y0.10207
G01 X2.78346 Y0.10630
G01 X2.78346 Y0.32549
G01 X2.77683 Y0.33235
G01 X2.77311 Y0.33875
G01 X2.77050 Y0.34655
G01 X2.76971 Y0.35392
G04 P0 ( dwell for no time -- G64 should not smooth over this point )
G00 Z0.19685 ( retract )

G00 X2.86971 Y0.35392 ( rapid move to begin. )
G01 F0.98425
G01 Z-0.01575
G04 P0 ( dwell for no time -- G64 should not smooth over this point )
G01 F1.96850
G01 X2.86971 Y0.35392
G01 X2.87061 Y0.36250
G01 X2.87310 Y0.36991
G01 X2.87683 Y0.37631
G01 X2.88238 Y0.38238
G01 X2.88838 Y0.38672
G01 X2.89514 Y0.38975
G01 X2.90359 Y0.39155
G01 X2.91140 Y0.39146
G01 X2.91825 Y0.39001
G01 X2.92579 Y0.38672
G01 X2.93240 Y0.38183
G01 X2.93735 Y0.37631
G01 X2.94140 Y0.36916
G01 X2.94367 Y0.36211
G01 X2.94447 Y0.35392
G01 X2.94367 Y0.34655
G01 X2.94107 Y0.33875
G01 X2.93735 Y0.33235
G01 X2.93071 Y0.32549
G01 X2.93071 Y0.31679
G01 X3.17663 Y0.07087
G01 X3.55163 Y0.07087
G01 X3.83146 Y0.35070
G01 X3.83112 Y0.35474
G01 X3.83186 Y0.36170
G01 X3.83419 Y0.36916
G01 X3.83825 Y0.37631
G01 X3.84380 Y0.38238
G01 X3.84980 Y0.38672
G01 X3.85656 Y0.38975
G01 X3.86419 Y0.39146
G01 X3.87282 Y0.39146
G01 X3.88045 Y0.38975
G01 X3.88720 Y0.38672
G01 X3.89321 Y0.38238
G01 X3.89876 Y0.37631
G01 X3.90282 Y0.36916
G01 X3.90509 Y0.36211
G01 X3.90588 Y0.35474
G01 X3.90509 Y0.34655
G01 X3.90282 Y0.33950
G01 X3.89876 Y0.33235
G01 X3.89382 Y0.32683
G01 X3.88720 Y0.32194
G01 X3.88045 Y0.31891
G01 X3.87282 Y0.31720
G01 X3.86472 Y0.31714
G01 X3.57812 Y0.03054
G01 X3.57485 Y0.02783
G01 X3.57081 Y0.02559
G01 X3.56640 Y0.02417
G01 X3.56142 Y0.02362
G01 X3.16685 Y0.02362
G01 X3.16186 Y0.02417
G01 X3.15746 Y0.02559
G01 X3.15341 Y0.02783
G01 X3.15014 Y0.03054
G01 X2.89012 Y0.29059
G01 X2.88543 Y0.29762
G01 X2.88386 Y0.30278
G01 X2.88346 Y0.32549
G01 X2.87683 Y0.33235
G01 X2.87310 Y0.33875
G01 X2.87050 Y0.34655
G01 X2.86971 Y0.35392
G04 P0 ( dwell for no time -- G64 should not smooth over this point )
G00 Z0.19685 ( retract )

G00 X2.96971 Y0.35392 ( rapid move to begin. )
G01 F0.98425
G01 Z-0.01575
G04 P0 ( dwell for no time -- G64 should not smooth over this point )
G01 F1.96850
G01 X2.96971 Y0.35392
G01 X2.97061 Y0.36250
G01 X2.97277 Y0.36916
G01 X2.97660 Y0.37597
G01 X2.98177 Y0.38183
G01 X2.98875 Y0.38691
G01 X2.99514 Y0.38975
G01 X3.00277 Y0.39146
G01 X3.01140 Y0.39146
G01 X3.01903 Y0.38975
G01 X3.02579 Y0.38672
G01 X3.03179 Y0.38238
G01 X3.03735 Y0.37631
G01 X3.04140 Y0.36916
G01 X3.04367 Y0.36211
G01 X3.04447 Y0.35392
G01 X3.04367 Y0.34655
G01 X3.04107 Y0.33875
G01 X3.03735 Y0.33235
G01 X3.03071 Y0.32549
G01 X3.03071 Y0.31679
G01 X3.19561 Y0.15189
G01 X3.46266 Y0.15189
G01 X3.62756 Y0.31679
G01 X3.62756 Y0.32549
G01 X3.62092 Y0.33235
G01 X3.61720 Y0.33875
G01 X3.61460 Y0.34655
G01 X3.61380 Y0.35392
G01 X3.61460 Y0.36211
G01 X3.61687 Y0.36916
G01 X3.62092 Y0.37631
G01 X3.62647 Y0.38238
G01 X3.63248 Y0.38672
G01 X3.63924 Y0.38975
G01 X3.64686 Y0.39146
G01 X3.65468 Y0.39155
G01 X3.66312 Y0.38975
G01 X3.66988 Y0.38672
G01 X3.67589 Y0.38238
G01 X3.68144 Y0.37631
G01 X3.68550 Y0.36916
G01 X3.68777 Y0.36211
G01 X3.68856 Y0.35474
G01 X3.68777 Y0.34655
G01 X3.68516 Y0.33875
G01 X3.68144 Y0.33235
G01 X3.67480 Y0.32549
G01 X3.67441 Y0.30278
G01 X3.67284 Y0.29762
G01 X3.66814 Y0.29059
G01 X3.48914 Y0.11156
G01 X3.48587 Y0.10885
G01 X3.48183 Y0.10661
G01 X3.47742 Y0.10519
G01 X3.47244 Y0.10464
G01 X3.18583 Y0.10464
G01 X3.18084 Y0.10519
G01 X3.17644 Y0.10661
G01 X3.17239 Y0.10885
G01 X3.16912 Y0.11156
G01 X2.99012 Y0.29059
G01 X2.98543 Y0.29762
G01 X2.98386 Y0.30278
G01 X2.98346 Y0.32549
G01 X2.97683 Y0.33235
G01 X2.97310 Y0.33875
G01 X2.97050 Y0.34655
G01 X2.96971 Y0.35392
G04 P0 ( dwell for no time -- G64 should not smooth over this point )
G00 Z0.19685 ( retract )

G00 X3.26968 Y0.32087 ( rapid move to begin. )
G01 F0.98425
G01 Z-0.01575
G04 P0 ( dwell for no time -- G64 should not smooth over this point )
G01 F1.96850
G01 X3.26968 Y0.32087
G01 X3.27084 Y0.31808
G01 X3.27362 Y0.31693
G01 X3.34132 Y0.31700
G01 X3.34334 Y0.31808
G01 X3.34441 Y0.32010
G01 X3.34449 Y0.33071
G01 X3.38031 Y0.33073
G01 X3.38860 Y0.33238
G01 X3.39271 Y0.33449
G01 X3.39662 Y0.33763
G01 X3.52160 Y0.46260
G01 X4.03155 Y0.46260
G01 X4.15945 Y0.33470
G01 X4.15945 Y0.21260
G01 X4.15081 Y0.21252
G01 X4.14879 Y0.21144
G01 X4.14771 Y0.20943
G01 X4.14764 Y0.17520
G01 X4.14830 Y0.17301
G01 X4.15081 Y0.17133
G01 X4.17191 Y0.17126
G01 X4.17617 Y0.16936
G01 X4.18019 Y0.16850
G01 X4.18513 Y0.16841
G01 X4.19041 Y0.16948
G01 X4.19423 Y0.17126
G01 X4.21533 Y0.17133
G01 X4.21735 Y0.17241
G01 X4.21843 Y0.17443
G01 X4.21820 Y0.21017
G01 X4.21735 Y0.21144
G01 X4.21533 Y0.21252
G01 X4.20669 Y0.21260
G01 X4.20669 Y0.34449
G01 X4.20615 Y0.34947
G01 X4.20473 Y0.35388
G01 X4.20248 Y0.35792
G01 X4.19977 Y0.36119
G01 X4.05804 Y0.50292
G01 X4.05477 Y0.50563
G01 X4.05073 Y0.50788
G01 X4.04556 Y0.50945
G01 X3.51181 Y0.50984
G01 X3.50683 Y0.50930
G01 X3.49902 Y0.50606
G01 X3.49511 Y0.50292
G01 X3.37014 Y0.37795
G01 X3.34449 Y0.37795
G01 X3.34441 Y0.38856
G01 X3.34334 Y0.39058
G01 X3.34132 Y0.39166
G01 X3.27362 Y0.39173
G01 X3.27143 Y0.39107
G01 X3.26998 Y0.38930
G01 X3.26968 Y0.38780
G01 X3.26968 Y0.32087
G04 P0 ( dwell for no time -- G64 should not smooth over this point )
G00 Z0.19685 ( retract )

G00 X2.47638 Y-0.76772 ( rapid move to begin. )
G01 F0.98425
G01 Z-0.01575
G04 P0 ( dwell for no time -- G64 should not smooth over this point )
G01 F1.96850
G01 X2.47638 Y-0.76772
G01 X2.47732 Y-0.77672
G01 X2.47997 Y-0.78495
G01 X2.48465 Y-0.79317
G01 X2.49042 Y-0.79961
G01 X2.49769 Y-0.80500
G01 X2.50592 Y-0.80876
G01 X2.51557 Y-0.81081
G01 X2.52462 Y-0.81072
G01 X2.53307 Y-0.80890
G01 X2.54168 Y-0.80500
G01 X2.54895 Y-0.79961
G01 X2.55472 Y-0.79317
G01 X2.55939 Y-0.78495
G01 X2.56204 Y-0.77672
G01 X2.56299 Y-0.76772
G01 X2.56194 Y-0.75831
G01 X2.55925 Y-0.75010
G01 X2.55472 Y-0.74226
G01 X2.54895 Y-0.73582
G01 X2.54134 Y-0.73021
G01 X2.53345 Y-0.72668
G01 X2.52380 Y-0.72462
G01 X2.51475 Y-0.72471
G01 X2.50630 Y-0.72653
G01 X2.49769 Y-0.73043
G01 X2.49042 Y-0.73582
G01 X2.48465 Y-0.74226
G01 X2.47997 Y-0.75049
G01 X2.47732 Y-0.75871
G01 X2.47638 Y-0.76772
G04 P0 ( dwell for no time -- G64 should not smooth over this point )
G00 Z0.19685 ( retract )

G00 X2.73228 Y-0.59055 ( rapid move to begin. )
G01 F0.98425
G01 Z-0.01575
G04 P0 ( dwell for no time -- G64 should not smooth over this point )
G01 F1.96850
G01 X2.73228 Y-0.59055
G01 X2.73323 Y-0.59955
G01 X2.73588 Y-0.60778
G01 X2.74055 Y-0.61601
G01 X2.74632 Y-0.62244
G01 X2.75430 Y-0.62824
G01 X2.76261 Y-0.63184
G01 X2.77148 Y-0.63364
G01 X2.78052 Y-0.63356
G01 X2.78897 Y-0.63174
G01 X2.79759 Y-0.62783
G01 X2.80486 Y-0.62244
G01 X2.81063 Y-0.61601
G01 X2.81530 Y-0.60778
G01 X2.81795 Y-0.59955
G01 X2.81890 Y-0.59055
G01 X2.81784 Y-0.58115
G01 X2.81515 Y-0.57294
G01 X2.81063 Y-0.56510
G01 X2.80486 Y-0.55866
G01 X2.79724 Y-0.55305
G01 X2.78936 Y-0.54951
G01 X2.77970 Y-0.54746
G01 X2.77066 Y-0.54754
G01 X2.76221 Y-0.54936
G01 X2.75359 Y-0.55327
G01 X2.74632 Y-0.55866
G01 X2.74055 Y-0.56510
G01 X2.73588 Y-0.57332
G01 X2.73323 Y-0.58155
G01 X2.73228 Y-0.59055
G04 P0 ( dwell for no time -- G64 should not smooth over this point )
G00 Z0.19685 ( retract )

G00 X3.26378 Y-0.76772 ( rapid move to begin. )
G01 F0.98425
G01 Z-0.01575
G04 P0 ( dwell for no time -- G64 should not smooth over this point )
G01 F1.96850
G01 X3.26378 Y-0.76772
G01 X3.26472 Y-0.77672
G01 X3.26737 Y-0.78495
G01 X3.27205 Y-0.79317
G01 X3.27782 Y-0.79961
G01 X3.28543 Y-0.80522
G01 X3.29332 Y-0.80876
G01 X3.30297 Y-0.81081
G01 X3.31202 Y-0.81072
G01 X3.32047 Y-0.80890
G01 X3.32909 Y-0.80500
G01 X3.33636 Y-0.79961
G01 X3.34212 Y-0.79317
G01 X3.34680 Y-0.78495
G01 X3.34945 Y-0.77672
G01 X3.35039 Y-0.76772
G01 X3.34934 Y-0.75831
G01 X3.34665 Y-0.75010
G01 X3.34212 Y-0.74226
G01 X3.33636 Y-0.73582
G01 X3.32874 Y-0.73021
G01 X3.32085 Y-0.72668
G01 X3.31120 Y-0.72462
G01 X3.30215 Y-0.72471
G01 X3.29370 Y-0.72653
G01 X3.28509 Y-0.73043
G01 X3.27782 Y-0.73582
G01 X3.27205 Y-0.74226
G01 X3.26737 Y-0.75049
G01 X3.26472 Y-0.75871
G01 X3.26378 Y-0.76772
G04 P0 ( dwell for no time -- G64 should not smooth over this point )
G00 Z0.19685 ( retract )

G00 X3.51968 Y-0.59055 ( rapid move to begin. )
G01 F0.98425
G01 Z-0.01575
G04 P0 ( dwell for no time -- G64 should not smooth over this point )
G01 F1.96850
G01 X3.51968 Y-0.59055
G01 X3.52063 Y-0.59955
G01 X3.52328 Y-0.60778
G01 X3.52795 Y-0.61601
G01 X3.53372 Y-0.62244
G01 X3.54170 Y-0.62824
G01 X3.54961 Y-0.63174
G01 X3.55888 Y-0.63364
G01 X3.56792 Y-0.63356
G01 X3.57637 Y-0.63174
G01 X3.58499 Y-0.62783
G01 X3.59226 Y-0.62244
G01 X3.59803 Y-0.61601
G01 X3.60270 Y-0.60778
G01 X3.60535 Y-0.59955
G01 X3.60630 Y-0.59055
G01 X3.60525 Y-0.58115
G01 X3.60256 Y-0.57294
G01 X3.59803 Y-0.56510
G01 X3.59226 Y-0.55866
G01 X3.58465 Y-0.55305
G01 X3.57676 Y-0.54951
G01 X3.56711 Y-0.54746
G01 X3.55806 Y-0.54754
G01 X3.54961 Y-0.54936
G01 X3.54099 Y-0.55327
G01 X3.53372 Y-0.55866
G01 X3.52795 Y-0.56510
G01 X3.52328 Y-0.57332
G01 X3.52063 Y-0.58155
G01 X3.51968 Y-0.59055
G04 P0 ( dwell for no time -- G64 should not smooth over this point )
G00 Z0.19685 ( retract )

G00 X4.05120 Y-0.76813 ( rapid move to begin. )
G01 F0.98425
G01 Z-0.01575
G04 P0 ( dwell for no time -- G64 should not smooth over this point )
G01 F1.96850
G01 X4.05120 Y-0.76813
G01 X4.05213 Y-0.77672
G01 X4.05492 Y-0.78533
G01 X4.05923 Y-0.79283
G01 X4.06522 Y-0.79961
G01 X4.07249 Y-0.80500
G01 X4.08110 Y-0.80890
G01 X4.08955 Y-0.81072
G01 X4.09860 Y-0.81081
G01 X4.10787 Y-0.80890
G01 X4.11577 Y-0.80541
G01 X4.12315 Y-0.80016
G01 X4.12927 Y-0.79349
G01 X4.13405 Y-0.78533
G01 X4.13674 Y-0.77712
G01 X4.13777 Y-0.76731
G01 X4.13685 Y-0.75871
G01 X4.13405 Y-0.75010
G01 X4.12927 Y-0.74194
G01 X4.12315 Y-0.73527
G01 X4.11577 Y-0.73002
G01 X4.10787 Y-0.72653
G01 X4.09942 Y-0.72471
G01 X4.09037 Y-0.72462
G01 X4.08072 Y-0.72668
G01 X4.07249 Y-0.73043
G01 X4.06522 Y-0.73582
G01 X4.05923 Y-0.74261
G01 X4.05492 Y-0.75010
G01 X4.05213 Y-0.75871
G01 X4.05120 Y-0.76813
G04 P0 ( dwell for no time -- G64 should not smooth over this point )
G00 Z0.19685 ( retract )

G00 X4.30711 Y-0.59096 ( rapid move to begin. )
G01 F0.98425
G01 Z-0.01575
G04 P0 ( dwell for no time -- G64 should not smooth over this point )
G01 F1.96850
G01 X4.30711 Y-0.59096
G01 X4.30803 Y-0.59955
G01 X4.31083 Y-0.60816
G01 X4.31513 Y-0.61566
G01 X4.32112 Y-0.62244
G01 X4.32839 Y-0.62783
G01 X4.33701 Y-0.63174
G01 X4.34546 Y-0.63356
G01 X4.35451 Y-0.63364
G01 X4.36378 Y-0.63174
G01 X4.37168 Y-0.62824
G01 X4.37966 Y-0.62244
G01 X4.38565 Y-0.61566
G01 X4.38996 Y-0.60816
G01 X4.39275 Y-0.59955
G01 X4.39368 Y-0.59014
G01 X4.39275 Y-0.58155
G01 X4.38996 Y-0.57294
G01 X4.38565 Y-0.56544
G01 X4.37966 Y-0.55866
G01 X4.37239 Y-0.55327
G01 X4.36378 Y-0.54936
G01 X4.35533 Y-0.54754
G01 X4.34628 Y-0.54746
G01 X4.33701 Y-0.54936
G01 X4.32911 Y-0.55286
G01 X4.32174 Y-0.55811
G01 X4.31562 Y-0.56478
G01 X4.31083 Y-0.57294
G01 X4.30814 Y-0.58115
G01 X4.30711 Y-0.59096
G04 P0 ( dwell for no time -- G64 should not smooth over this point )
G00 Z0.19685 ( retract )

G00 X4.30711 Y-1.37836 ( rapid move to begin. )
G01 F0.98425
G01 Z-0.01575
G04 P0 ( dwell for no time -- G64 should not smooth over this point )
G01 F1.96850
G01 X4.30711 Y-1.37836
G01 X4.30803 Y-1.38696
G01 X4.31102 Y-1.39593
G01 X4.31562 Y-1.40373
G01 X4.32142 Y-1.41014
G01 X4.32839 Y-1.41523
G01 X4.33701 Y-1.41914
G01 X4.34546 Y-1.42096
G01 X4.35451 Y-1.42104
G01 X4.36378 Y-1.41914
G01 X4.37168 Y-1.41564
G01 X4.37937 Y-1.41014
G01 X4.38517 Y-1.40373
G01 X4.39010 Y-1.39518
G01 X4.39275 Y-1.38696
G01 X4.39368 Y-1.37754
G01 X4.39275 Y-1.36895
G01 X4.38977 Y-1.35997
G01 X4.38517 Y-1.35218
G01 X4.37937 Y-1.34577
G01 X4.37168 Y-1.34026
G01 X4.36378 Y-1.33676
G01 X4.35533 Y-1.33495
G01 X4.34628 Y-1.33486
G01 X4.33701 Y-1.33676
G01 X4.32911 Y-1.34026
G01 X4.32142 Y-1.34577
G01 X4.31562 Y-1.35218
G01 X4.31102 Y-1.35997
G01 X4.30814 Y-1.36855
G01 X4.30711 Y-1.37836
G04 P0 ( dwell for no time -- G64 should not smooth over this point )
G00 Z0.19685 ( retract )

G00 X4.05120 Y-1.55553 ( rapid move to begin. )
G01 F0.98425
G01 Z-0.01575
G04 P0 ( dwell for no time -- G64 should not smooth over this point )
G01 F1.96850
G01 X4.05120 Y-1.55553
G01 X4.05213 Y-1.56412
G01 X4.05511 Y-1.57310
G01 X4.05971 Y-1.58089
G01 X4.06551 Y-1.58730
G01 X4.07320 Y-1.59281
G01 X4.08110 Y-1.59631
G01 X4.08955 Y-1.59812
G01 X4.09860 Y-1.59821
G01 X4.10787 Y-1.59631
G01 X4.11577 Y-1.59281
G01 X4.12347 Y-1.58730
G01 X4.12927 Y-1.58089
G01 X4.13386 Y-1.57310
G01 X4.13674 Y-1.56452
G01 X4.13777 Y-1.55471
G01 X4.13685 Y-1.54611
G01 X4.13386 Y-1.53714
G01 X4.12927 Y-1.52934
G01 X4.12347 Y-1.52293
G01 X4.11577 Y-1.51743
G01 X4.10787 Y-1.51393
G01 X4.09942 Y-1.51211
G01 X4.09037 Y-1.51203
G01 X4.08110 Y-1.51393
G01 X4.07320 Y-1.51743
G01 X4.06551 Y-1.52293
G01 X4.05971 Y-1.52934
G01 X4.05478 Y-1.53789
G01 X4.05213 Y-1.54611
G01 X4.05120 Y-1.55553
G04 P0 ( dwell for no time -- G64 should not smooth over this point )
G00 Z0.19685 ( retract )

G00 X3.51971 Y-1.37836 ( rapid move to begin. )
G01 F0.98425
G01 Z-0.01575
G04 P0 ( dwell for no time -- G64 should not smooth over this point )
G01 F1.96850
G01 X3.51971 Y-1.37836
G01 X3.52063 Y-1.38696
G01 X3.52362 Y-1.39593
G01 X3.52795 Y-1.40341
G01 X3.53401 Y-1.41014
G01 X3.54099 Y-1.41523
G01 X3.54961 Y-1.41914
G01 X3.55806 Y-1.42096
G01 X3.56711 Y-1.42104
G01 X3.57637 Y-1.41914
G01 X3.58428 Y-1.41564
G01 X3.59197 Y-1.41014
G01 X3.59777 Y-1.40373
G01 X3.60237 Y-1.39593
G01 X3.60525 Y-1.38735
G01 X3.60628 Y-1.37754
G01 X3.60535 Y-1.36895
G01 X3.60237 Y-1.35997
G01 X3.59803 Y-1.35250
G01 X3.59197 Y-1.34577
G01 X3.58465 Y-1.34045
G01 X3.57676 Y-1.33691
G01 X3.56792 Y-1.33495
G01 X3.55888 Y-1.33486
G01 X3.54922 Y-1.33691
G01 X3.54099 Y-1.34067
G01 X3.53372 Y-1.34606
G01 X3.52795 Y-1.35250
G01 X3.52328 Y-1.36072
G01 X3.52063 Y-1.36895
G01 X3.51971 Y-1.37836
G04 P0 ( dwell for no time -- G64 should not smooth over this point )
G00 Z0.19685 ( retract )

G00 X3.26380 Y-1.55553 ( rapid move to begin. )
G01 F0.98425
G01 Z-0.01575
G04 P0 ( dwell for no time -- G64 should not smooth over this point )
G01 F1.96850
G01 X3.26380 Y-1.55553
G01 X3.26472 Y-1.56412
G01 X3.26771 Y-1.57310
G01 X3.27205 Y-1.58057
G01 X3.27811 Y-1.58730
G01 X3.28543 Y-1.59262
G01 X3.29332 Y-1.59616
G01 X3.30215 Y-1.59812
G01 X3.31120 Y-1.59821
G01 X3.32047 Y-1.59631
G01 X3.32837 Y-1.59281
G01 X3.33636 Y-1.58701
G01 X3.34212 Y-1.58057
G01 X3.34680 Y-1.57235
G01 X3.34945 Y-1.56412
G01 X3.35037 Y-1.55471
G01 X3.34945 Y-1.54611
G01 X3.34646 Y-1.53714
G01 X3.34212 Y-1.52966
G01 X3.33606 Y-1.52293
G01 X3.32874 Y-1.51761
G01 X3.32085 Y-1.51408
G01 X3.31202 Y-1.51211
G01 X3.30297 Y-1.51203
G01 X3.29370 Y-1.51393
G01 X3.28580 Y-1.51743
G01 X3.27811 Y-1.52293
G01 X3.27231 Y-1.52934
G01 X3.26737 Y-1.53789
G01 X3.26472 Y-1.54611
G01 X3.26380 Y-1.55553
G04 P0 ( dwell for no time -- G64 should not smooth over this point )
G00 Z0.19685 ( retract )

G00 X2.73231 Y-1.37836 ( rapid move to begin. )
G01 F0.98425
G01 Z-0.01575
G04 P0 ( dwell for no time -- G64 should not smooth over this point )
G01 F1.96850
G01 X2.73231 Y-1.37836
G01 X2.73323 Y-1.38696
G01 X2.73621 Y-1.39593
G01 X2.74055 Y-1.40341
G01 X2.74661 Y-1.41014
G01 X2.75394 Y-1.41546
G01 X2.76182 Y-1.41899
G01 X2.77066 Y-1.42096
G01 X2.77970 Y-1.42104
G01 X2.78897 Y-1.41914
G01 X2.79688 Y-1.41564
G01 X2.80457 Y-1.41014
G01 X2.81037 Y-1.40373
G01 X2.81530 Y-1.39518
G01 X2.81795 Y-1.38696
G01 X2.81888 Y-1.37754
G01 X2.81795 Y-1.36895
G01 X2.81497 Y-1.35997
G01 X2.81063 Y-1.35250
G01 X2.80457 Y-1.34577
G01 X2.79724 Y-1.34045
G01 X2.78936 Y-1.33691
G01 X2.78052 Y-1.33495
G01 X2.77148 Y-1.33486
G01 X2.76221 Y-1.33676
G01 X2.75430 Y-1.34026
G01 X2.74661 Y-1.34577
G01 X2.74081 Y-1.35218
G01 X2.73588 Y-1.36072
G01 X2.73323 Y-1.36895
G01 X2.73231 Y-1.37836
G04 P0 ( dwell for no time -- G64 should not smooth over this point )
G00 Z0.19685 ( retract )

G00 X2.47640 Y-1.55553 ( rapid move to begin. )
G01 F0.98425
G01 Z-0.01575
G04 P0 ( dwell for no time -- G64 should not smooth over this point )
G01 F1.96850
G01 X2.47640 Y-1.55553
G01 X2.47732 Y-1.56412
G01 X2.48031 Y-1.57310
G01 X2.48465 Y-1.58057
G01 X2.49071 Y-1.58730
G01 X2.49840 Y-1.59281
G01 X2.50630 Y-1.59631
G01 X2.51475 Y-1.59812
G01 X2.52380 Y-1.59821
G01 X2.53307 Y-1.59631
G01 X2.54097 Y-1.59281
G01 X2.54895 Y-1.58701
G01 X2.55472 Y-1.58057
G01 X2.55939 Y-1.57235
G01 X2.56204 Y-1.56412
G01 X2.56297 Y-1.55471
G01 X2.56204 Y-1.54611
G01 X2.55906 Y-1.53714
G01 X2.55472 Y-1.52966
G01 X2.54866 Y-1.52293
G01 X2.54134 Y-1.51761
G01 X2.53345 Y-1.51408
G01 X2.52462 Y-1.51211
G01 X2.51557 Y-1.51203
G01 X2.50630 Y-1.51393
G01 X2.49840 Y-1.51743
G01 X2.49071 Y-1.52293
G01 X2.48491 Y-1.52934
G01 X2.48031 Y-1.53714
G01 X2.47743 Y-1.54572
G01 X2.47640 Y-1.55553
G04 P0 ( dwell for no time -- G64 should not smooth over this point )
G00 Z0.19685 ( retract )

G00 X1.94490 Y-1.37836 ( rapid move to begin. )
G01 F0.98425
G01 Z-0.01575
G04 P0 ( dwell for no time -- G64 should not smooth over this point )
G01 F1.96850
G01 X1.94490 Y-1.37836
G01 X1.94583 Y-1.38696
G01 X1.94881 Y-1.39593
G01 X1.95315 Y-1.40341
G01 X1.95921 Y-1.41014
G01 X1.96653 Y-1.41546
G01 X1.97442 Y-1.41899
G01 X1.98366 Y-1.42102
G01 X1.99230 Y-1.42104
G01 X2.00157 Y-1.41914
G01 X2.00948 Y-1.41564
G01 X2.01717 Y-1.41014
G01 X2.02297 Y-1.40373
G01 X2.02756 Y-1.39593
G01 X2.03044 Y-1.38735
G01 X2.03147 Y-1.37754
G01 X2.03055 Y-1.36895
G01 X2.02756 Y-1.35997
G01 X2.02323 Y-1.35250
G01 X2.01717 Y-1.34577
G01 X2.00984 Y-1.34045
G01 X2.00196 Y-1.33691
G01 X1.99272 Y-1.33488
G01 X1.98407 Y-1.33486
G01 X1.97442 Y-1.33691
G01 X1.96653 Y-1.34045
G01 X1.95892 Y-1.34606
G01 X1.95315 Y-1.35250
G01 X1.94848 Y-1.36072
G01 X1.94583 Y-1.36895
G01 X1.94490 Y-1.37836
G04 P0 ( dwell for no time -- G64 should not smooth over this point )
G00 Z0.19685 ( retract )

G00 X1.68900 Y-1.55553 ( rapid move to begin. )
G01 F0.98425
G01 Z-0.01575
G04 P0 ( dwell for no time -- G64 should not smooth over this point )
G01 F1.96850
G01 X1.68900 Y-1.55553
G01 X1.68992 Y-1.56412
G01 X1.69291 Y-1.57310
G01 X1.69725 Y-1.58057
G01 X1.70331 Y-1.58730
G01 X1.71063 Y-1.59262
G01 X1.71852 Y-1.59616
G01 X1.72776 Y-1.59819
G01 X1.73640 Y-1.59821
G01 X1.74527 Y-1.59641
G01 X1.75394 Y-1.59262
G01 X1.76126 Y-1.58730
G01 X1.76706 Y-1.58089
G01 X1.77166 Y-1.57310
G01 X1.77454 Y-1.56452
G01 X1.77557 Y-1.55471
G01 X1.77464 Y-1.54611
G01 X1.77166 Y-1.53714
G01 X1.76732 Y-1.52966
G01 X1.76126 Y-1.52293
G01 X1.75394 Y-1.51761
G01 X1.74605 Y-1.51408
G01 X1.73681 Y-1.51205
G01 X1.72817 Y-1.51203
G01 X1.71930 Y-1.51382
G01 X1.71063 Y-1.51761
G01 X1.70331 Y-1.52293
G01 X1.69751 Y-1.52934
G01 X1.69257 Y-1.53789
G01 X1.68992 Y-1.54611
G01 X1.68900 Y-1.55553
G04 P0 ( dwell for no time -- G64 should not smooth over this point )
G00 Z0.19685 ( retract )

G00 X1.15750 Y-1.55553 ( rapid move to begin. )
G01 F0.98425
G01 Z-0.01575
G04 P0 ( dwell for no time -- G64 should not smooth over this point )
G01 F1.96850
G01 X1.15750 Y-1.55553
G01 X1.15843 Y-1.56412
G01 X1.16108 Y-1.57235
G01 X1.16553 Y-1.58023
G01 X1.17181 Y-1.58730
G01 X1.17913 Y-1.59262
G01 X1.18780 Y-1.59641
G01 X1.19626 Y-1.59819
G01 X1.20490 Y-1.59821
G01 X1.21377 Y-1.59641
G01 X1.22244 Y-1.59262
G01 X1.23006 Y-1.58701
G01 X1.23582 Y-1.58057
G01 X1.24016 Y-1.57310
G01 X1.24321 Y-1.56371
G01 X1.24407 Y-1.55471
G01 X1.24315 Y-1.54616
G01 X1.31591 Y-1.47340
G01 X1.31905 Y-1.46948
G01 X1.32117 Y-1.46537
G01 X1.32244 Y-1.46092
G01 X1.32283 Y-1.45669
G01 X1.32283 Y-0.76259
G01 X1.49032 Y-0.59510
G01 X1.49303 Y-0.59183
G01 X1.49528 Y-0.58779
G01 X1.49685 Y-0.58262
G01 X1.49724 Y-0.39758
G01 X1.52650 Y-0.36776
G01 X1.52904 Y-0.36301
G01 X1.53069 Y-0.35472
G01 X1.53071 Y0.32549
G01 X1.53734 Y0.33235
G01 X1.54107 Y0.33875
G01 X1.54356 Y0.34616
G01 X1.54449 Y0.35433
G01 X1.54374 Y0.36170
G01 X1.54140 Y0.36916
G01 X1.53709 Y0.37663
G01 X1.53179 Y0.38238
G01 X1.52542 Y0.38691
G01 X1.51903 Y0.38975
G01 X1.51140 Y0.39146
G01 X1.50318 Y0.39153
G01 X1.49593 Y0.39001
G01 X1.48875 Y0.38691
G01 X1.48238 Y0.38238
G01 X1.47683 Y0.37631
G01 X1.47311 Y0.36991
G01 X1.47061 Y0.36250
G01 X1.46971 Y0.35474
G01 X1.47044 Y0.34696
G01 X1.47311 Y0.33875
G01 X1.47683 Y0.33235
G01 X1.48346 Y0.32549
G01 X1.48346 Y-0.34455
G01 X1.45666 Y-0.37138
G01 X1.45196 Y-0.37841
G01 X1.45040 Y-0.38357
G01 X1.45000 Y-0.56861
G01 X1.28251 Y-0.73611
G01 X1.27937 Y-0.74002
G01 X1.27614 Y-0.74782
G01 X1.27559 Y-0.75281
G01 X1.27559 Y-1.44691
G01 X1.20957 Y-1.51293
G01 X1.20531 Y-1.51205
G01 X1.19667 Y-1.51203
G01 X1.18780 Y-1.51382
G01 X1.17913 Y-1.51761
G01 X1.17181 Y-1.52293
G01 X1.16575 Y-1.52966
G01 X1.16108 Y-1.53789
G01 X1.15843 Y-1.54611
G01 X1.15750 Y-1.55553
G04 P0 ( dwell for no time -- G64 should not smooth over this point )
G00 Z0.19685 ( retract )

G00 X1.15750 Y-1.37836 ( rapid move to begin. )
G01 F0.98425
G01 Z-0.01575
G04 P0 ( dwell for no time -- G64 should not smooth over this point )
G01 F1.96850
G01 X1.15750 Y-1.37836
G01 X1.15843 Y-1.38696
G01 X1.16141 Y-1.39593
G01 X1.16575 Y-1.40341
G01 X1.17181 Y-1.41014
G01 X1.17913 Y-1.41546
G01 X1.18702 Y-1.41899
G01 X1.19626 Y-1.42102
G01 X1.20490 Y-1.42104
G01 X1.21377 Y-1.41925
G01 X1.22244 Y-1.41546
G01 X1.22976 Y-1.41014
G01 X1.23556 Y-1.40373
G01 X1.24050 Y-1.39518
G01 X1.24315 Y-1.38696
G01 X1.24407 Y-1.37754
G01 X1.24315 Y-1.36895
G01 X1.24016 Y-1.35997
G01 X1.23582 Y-1.35250
G01 X1.22976 Y-1.34577
G01 X1.22244 Y-1.34045
G01 X1.21455 Y-1.33691
G01 X1.20531 Y-1.33488
G01 X1.19667 Y-1.33486
G01 X1.18702 Y-1.33691
G01 X1.17913 Y-1.34045
G01 X1.17152 Y-1.34606
G01 X1.16575 Y-1.35250
G01 X1.16108 Y-1.36072
G01 X1.15843 Y-1.36895
G01 X1.15750 Y-1.37836
G04 P0 ( dwell for no time -- G64 should not smooth over this point )
G00 Z0.19685 ( retract )

G00 X0.90160 Y-1.55553 ( rapid move to begin. )
G01 F0.98425
G01 Z-0.01575
G04 P0 ( dwell for no time -- G64 should not smooth over this point )
G01 F1.96850
G01 X0.90160 Y-1.55553
G01 X0.90252 Y-1.56412
G01 X0.90532 Y-1.57273
G01 X0.90962 Y-1.58023
G01 X0.91590 Y-1.58730
G01 X0.92323 Y-1.59262
G01 X0.93150 Y-1.59631
G01 X0.93995 Y-1.59812
G01 X0.94900 Y-1.59821
G01 X0.95826 Y-1.59631
G01 X0.96617 Y-1.59281
G01 X0.97415 Y-1.58701
G01 X0.98014 Y-1.58023
G01 X0.98444 Y-1.57273
G01 X0.98724 Y-1.56412
G01 X0.98817 Y-1.55471
G01 X0.98724 Y-1.54611
G01 X0.98444 Y-1.53750
G01 X0.98014 Y-1.53001
G01 X0.97386 Y-1.52293
G01 X0.96654 Y-1.51761
G01 X0.95826 Y-1.51393
G01 X0.94981 Y-1.51211
G01 X0.94077 Y-1.51203
G01 X0.93150 Y-1.51393
G01 X0.92323 Y-1.51761
G01 X0.91590 Y-1.52293
G01 X0.91011 Y-1.52934
G01 X0.90532 Y-1.53750
G01 X0.90263 Y-1.54572
G01 X0.90160 Y-1.55553
G04 P0 ( dwell for no time -- G64 should not smooth over this point )
G00 Z0.19685 ( retract )

G00 X0.33073 Y-1.55553 ( rapid move to begin. )
G01 F0.98425
G01 Z-0.01575
G04 P0 ( dwell for no time -- G64 should not smooth over this point )
G01 F1.96850
G01 X0.33073 Y-1.55553
G01 X0.33165 Y-1.54611
G01 X0.33445 Y-1.53750
G01 X0.33924 Y-1.52934
G01 X0.34504 Y-1.52293
G01 X0.35236 Y-1.51761
G01 X0.36103 Y-1.51382
G01 X0.36990 Y-1.51203
G01 X0.37813 Y-1.51203
G01 X0.38280 Y-1.51293
G01 X0.44882 Y-1.44691
G01 X0.44882 Y-0.75281
G01 X0.44922 Y-0.74858
G01 X0.45049 Y-0.74413
G01 X0.45303 Y-0.73937
G01 X0.77548 Y-0.41637
G01 X0.77874 Y-0.41366
G01 X0.78279 Y-0.41141
G01 X0.78719 Y-0.41000
G01 X0.79218 Y-0.40945
G01 X1.17132 Y-0.40945
G01 X1.18346 Y-0.39730
G01 X1.18346 Y0.32549
G01 X1.17709 Y0.33203
G01 X1.17292 Y0.33912
G01 X1.17044 Y0.34696
G01 X1.16971 Y0.35474
G01 X1.17044 Y0.36170
G01 X1.17277 Y0.36916
G01 X1.17660 Y0.37597
G01 X1.18177 Y0.38183
G01 X1.18875 Y0.38691
G01 X1.19593 Y0.39001
G01 X1.20359 Y0.39155
G01 X1.21100 Y0.39153
G01 X1.21825 Y0.39001
G01 X1.22542 Y0.38691
G01 X1.23211 Y0.38212
G01 X1.23757 Y0.37597
G01 X1.24125 Y0.36954
G01 X1.24356 Y0.36250
G01 X1.24449 Y0.35433
G01 X1.24356 Y0.34616
G01 X1.24107 Y0.33875
G01 X1.23734 Y0.33235
G01 X1.23071 Y0.32549
G01 X1.23071 Y-0.40709
G01 X1.23016 Y-0.41207
G01 X1.22874 Y-0.41647
G01 X1.22650 Y-0.42052
G01 X1.22379 Y-0.42379
G01 X1.19752 Y-0.45003
G01 X1.19049 Y-0.45473
G01 X1.18609 Y-0.45615
G01 X1.18149 Y-0.45667
G01 X0.80196 Y-0.45669
G01 X0.49606 Y-0.76259
G01 X0.49606 Y-1.45669
G01 X0.49551 Y-1.46168
G01 X0.49228 Y-1.46948
G01 X0.48914 Y-1.47340
G01 X0.41638 Y-1.54616
G01 X0.41730 Y-1.55471
G01 X0.41644 Y-1.56371
G01 X0.41358 Y-1.57273
G01 X0.40928 Y-1.58023
G01 X0.40329 Y-1.58701
G01 X0.39567 Y-1.59262
G01 X0.38700 Y-1.59641
G01 X0.37813 Y-1.59821
G01 X0.36908 Y-1.59812
G01 X0.36103 Y-1.59641
G01 X0.35236 Y-1.59262
G01 X0.34504 Y-1.58730
G01 X0.33875 Y-1.58023
G01 X0.33445 Y-1.57273
G01 X0.33176 Y-1.56452
G01 X0.33073 Y-1.55553
G04 P0 ( dwell for no time -- G64 should not smooth over this point )
G00 Z0.19685 ( retract )

G00 X0.07482 Y-1.37836 ( rapid move to begin. )
G01 F0.98425
G01 Z-0.01575
G04 P0 ( dwell for no time -- G64 should not smooth over this point )
G01 F1.96850
G01 X0.07482 Y-1.37836
G01 X0.07575 Y-1.36895
G01 X0.07855 Y-1.36034
G01 X0.08285 Y-1.35284
G01 X0.08884 Y-1.34606
G01 X0.09646 Y-1.34045
G01 X0.10434 Y-1.33691
G01 X0.11399 Y-1.33486
G01 X0.12264 Y-1.33488
G01 X0.13188 Y-1.33691
G01 X0.13976 Y-1.34045
G01 X0.14709 Y-1.34577
G01 X0.15289 Y-1.35218
G01 X0.15767 Y-1.36034
G01 X0.16047 Y-1.36895
G01 X0.16140 Y-1.37754
G01 X0.16036 Y-1.38735
G01 X0.15767 Y-1.39557
G01 X0.15289 Y-1.40373
G01 X0.14709 Y-1.41014
G01 X0.13976 Y-1.41546
G01 X0.13109 Y-1.41925
G01 X0.12223 Y-1.42104
G01 X0.11358 Y-1.42102
G01 X0.10434 Y-1.41899
G01 X0.09646 Y-1.41546
G01 X0.08913 Y-1.41014
G01 X0.08285 Y-1.40306
G01 X0.07855 Y-1.39557
G01 X0.07575 Y-1.38696
G01 X0.07482 Y-1.37836
G04 P0 ( dwell for no time -- G64 should not smooth over this point )
G00 Z0.19685 ( retract )

G00 X0.07482 Y-1.55553 ( rapid move to begin. )
G01 F0.98425
G01 Z-0.01575
G04 P0 ( dwell for no time -- G64 should not smooth over this point )
G01 F1.96850
G01 X0.07482 Y-1.55553
G01 X0.07575 Y-1.54611
G01 X0.07840 Y-1.53789
G01 X0.08333 Y-1.52934
G01 X0.08913 Y-1.52293
G01 X0.09646 Y-1.51761
G01 X0.10512 Y-1.51382
G01 X0.11399 Y-1.51203
G01 X0.12264 Y-1.51205
G01 X0.13188 Y-1.51408
G01 X0.13976 Y-1.51761
G01 X0.14709 Y-1.52293
G01 X0.15289 Y-1.52934
G01 X0.15767 Y-1.53750
G01 X0.16047 Y-1.54611
G01 X0.16140 Y-1.55471
G01 X0.16036 Y-1.56452
G01 X0.15767 Y-1.57273
G01 X0.15289 Y-1.58089
G01 X0.14709 Y-1.58730
G01 X0.13976 Y-1.59262
G01 X0.13109 Y-1.59641
G01 X0.12223 Y-1.59821
G01 X0.11358 Y-1.59819
G01 X0.10434 Y-1.59616
G01 X0.09646 Y-1.59262
G01 X0.08913 Y-1.58730
G01 X0.08285 Y-1.58023
G01 X0.07855 Y-1.57273
G01 X0.07575 Y-1.56412
G01 X0.07482 Y-1.55553
G04 P0 ( dwell for no time -- G64 should not smooth over this point )
G00 Z0.19685 ( retract )

G00 X0.07482 Y-2.18545 ( rapid move to begin. )
G01 F0.98425
G01 Z-0.01575
G04 P0 ( dwell for no time -- G64 should not smooth over this point )
G01 F1.96850
G01 X0.07482 Y-2.18545
G01 X0.07569 Y-2.17644
G01 X0.07840 Y-2.16781
G01 X0.08333 Y-2.15926
G01 X0.08913 Y-2.15286
G01 X0.09682 Y-2.14735
G01 X0.10512 Y-2.14375
G01 X0.11399 Y-2.14195
G01 X0.12264 Y-2.14197
G01 X0.13188 Y-2.14400
G01 X0.14011 Y-2.14776
G01 X0.14709 Y-2.15286
G01 X0.15315 Y-2.15958
G01 X0.15749 Y-2.16706
G01 X0.16047 Y-2.17604
G01 X0.16140 Y-2.18463
G01 X0.16036 Y-2.19444
G01 X0.15767 Y-2.20265
G01 X0.15289 Y-2.21081
G01 X0.14709 Y-2.21722
G01 X0.13940 Y-2.22273
G01 X0.13109 Y-2.22633
G01 X0.12223 Y-2.22813
G01 X0.11358 Y-2.22811
G01 X0.10434 Y-2.22608
G01 X0.09611 Y-2.22232
G01 X0.08913 Y-2.21722
G01 X0.08307 Y-2.21049
G01 X0.07873 Y-2.20302
G01 X0.07575 Y-2.19404
G01 X0.07482 Y-2.18545
G04 P0 ( dwell for no time -- G64 should not smooth over this point )
G00 Z0.19685 ( retract )

G00 X0.07482 Y-2.36262 ( rapid move to begin. )
G01 F0.98425
G01 Z-0.01575
G04 P0 ( dwell for no time -- G64 should not smooth over this point )
G01 F1.96850
G01 X0.07482 Y-2.36262
G01 X0.07569 Y-2.35361
G01 X0.07855 Y-2.34459
G01 X0.08307 Y-2.33675
G01 X0.08884 Y-2.33031
G01 X0.09611 Y-2.32492
G01 X0.10434 Y-2.32116
G01 X0.11399 Y-2.31911
G01 X0.12264 Y-2.31913
G01 X0.13188 Y-2.32116
G01 X0.14011 Y-2.32492
G01 X0.14709 Y-2.33002
G01 X0.15315 Y-2.33675
G01 X0.15749 Y-2.34422
G01 X0.16047 Y-2.35320
G01 X0.16140 Y-2.36179
G01 X0.16036 Y-2.37161
G01 X0.15767 Y-2.37982
G01 X0.15289 Y-2.38798
G01 X0.14709 Y-2.39439
G01 X0.13940 Y-2.39990
G01 X0.13109 Y-2.40350
G01 X0.12223 Y-2.40530
G01 X0.11358 Y-2.40527
G01 X0.10434 Y-2.40324
G01 X0.09611 Y-2.39948
G01 X0.08913 Y-2.39439
G01 X0.08307 Y-2.38766
G01 X0.07873 Y-2.38019
G01 X0.07575 Y-2.37121
G01 X0.07482 Y-2.36262
G04 P0 ( dwell for no time -- G64 should not smooth over this point )
G00 Z0.19685 ( retract )

G00 X0.33073 Y-2.36262 ( rapid move to begin. )
G01 F0.98425
G01 Z-0.01575
G04 P0 ( dwell for no time -- G64 should not smooth over this point )
G01 F1.96850
G01 X0.33073 Y-2.36262
G01 X0.33159 Y-2.35361
G01 X0.33445 Y-2.34459
G01 X0.33898 Y-2.33675
G01 X0.34504 Y-2.33002
G01 X0.35273 Y-2.32451
G01 X0.36103 Y-2.32091
G01 X0.36990 Y-2.31911
G01 X0.37854 Y-2.31913
G01 X0.38280 Y-2.32002
G01 X0.50787 Y-2.19494
G01 X0.50787 Y-0.77727
G01 X0.50827 Y-0.77304
G01 X0.50954 Y-0.76859
G01 X0.51166 Y-0.76448
G01 X0.51479 Y-0.76057
G01 X0.79994 Y-0.47542
G01 X0.80321 Y-0.47271
G01 X0.80725 Y-0.47047
G01 X0.81166 Y-0.46905
G01 X0.81664 Y-0.46850
G01 X1.19578 Y-0.46850
G01 X1.25000 Y-0.41428
G01 X1.25002 Y-0.38741
G01 X1.25055 Y-0.38281
G01 X1.25196 Y-0.37841
G01 X1.25421 Y-0.37436
G01 X1.25692 Y-0.37109
G01 X1.28346 Y-0.34455
G01 X1.28346 Y0.32549
G01 X1.27683 Y0.33235
G01 X1.27310 Y0.33875
G01 X1.27044 Y0.34696
G01 X1.26971 Y0.35474
G01 X1.27044 Y0.36170
G01 X1.27277 Y0.36916
G01 X1.27660 Y0.37597
G01 X1.28177 Y0.38183
G01 X1.28804 Y0.38650
G01 X1.29514 Y0.38975
G01 X1.30318 Y0.39153
G01 X1.31100 Y0.39153
G01 X1.31903 Y0.38975
G01 X1.32542 Y0.38691
G01 X1.33179 Y0.38238
G01 X1.33735 Y0.37631
G01 X1.34140 Y0.36916
G01 X1.34373 Y0.36170
G01 X1.34449 Y0.35433
G01 X1.34356 Y0.34616
G01 X1.34107 Y0.33875
G01 X1.33735 Y0.33235
G01 X1.33071 Y0.32549
G01 X1.33071 Y-0.35433
G01 X1.33031 Y-0.35856
G01 X1.32904 Y-0.36301
G01 X1.32650 Y-0.36776
G01 X1.29724 Y-0.39758
G01 X1.29723 Y-0.42445
G01 X1.29558 Y-0.43274
G01 X1.29346 Y-0.43686
G01 X1.29032 Y-0.44077
G01 X1.22227 Y-0.50883
G01 X1.21900 Y-0.51154
G01 X1.21495 Y-0.51379
G01 X1.20979 Y-0.51535
G01 X0.82642 Y-0.51575
G01 X0.55512 Y-0.78705
G01 X0.55472 Y-2.20895
G01 X0.55315 Y-2.21411
G01 X0.55091 Y-2.21816
G01 X0.54820 Y-2.22143
G01 X0.41638 Y-2.35324
G01 X0.41730 Y-2.36179
G01 X0.41644 Y-2.37080
G01 X0.41358 Y-2.37982
G01 X0.40879 Y-2.38798
G01 X0.40299 Y-2.39439
G01 X0.39601 Y-2.39948
G01 X0.38778 Y-2.40324
G01 X0.37813 Y-2.40530
G01 X0.36908 Y-2.40521
G01 X0.36025 Y-2.40324
G01 X0.35273 Y-2.39990
G01 X0.34504 Y-2.39439
G01 X0.33875 Y-2.38731
G01 X0.33464 Y-2.38019
G01 X0.33176 Y-2.37161
G01 X0.33073 Y-2.36262
G04 P0 ( dwell for no time -- G64 should not smooth over this point )
G00 Z0.19685 ( retract )

G00 X0.90160 Y-2.34293 ( rapid move to begin. )
G01 F0.98425
G01 Z-0.01575
G04 P0 ( dwell for no time -- G64 should not smooth over this point )
G01 F1.96850
G01 X0.90160 Y-2.34293
G01 X0.90252 Y-2.35152
G01 X0.90551 Y-2.36050
G01 X0.90985 Y-2.36797
G01 X0.91590 Y-2.37470
G01 X0.92288 Y-2.37980
G01 X0.93111 Y-2.38356
G01 X0.94036 Y-2.38559
G01 X0.94900 Y-2.38561
G01 X0.95787 Y-2.38381
G01 X0.96617 Y-2.38021
G01 X0.97386 Y-2.37470
G01 X0.97966 Y-2.36829
G01 X0.98459 Y-2.35975
G01 X0.98724 Y-2.35152
G01 X0.98817 Y-2.34211
G01 X0.98724 Y-2.33351
G01 X0.98426 Y-2.32454
G01 X0.97992 Y-2.31706
G01 X0.97386 Y-2.31034
G01 X0.96688 Y-2.30524
G01 X0.95865 Y-2.30148
G01 X0.94941 Y-2.29945
G01 X0.94077 Y-2.29943
G01 X0.93111 Y-2.30148
G01 X0.92288 Y-2.30524
G01 X0.91561 Y-2.31063
G01 X0.90985 Y-2.31706
G01 X0.90517 Y-2.32529
G01 X0.90252 Y-2.33351
G01 X0.90160 Y-2.34293
G04 P0 ( dwell for no time -- G64 should not smooth over this point )
G00 Z0.19685 ( retract )

G00 X1.15750 Y-2.34293 ( rapid move to begin. )
G01 F0.98425
G01 Z-0.01575
G04 P0 ( dwell for no time -- G64 should not smooth over this point )
G01 F1.96850
G01 X1.15750 Y-2.34293
G01 X1.15836 Y-2.33392
G01 X1.16122 Y-2.32491
G01 X1.16575 Y-2.31706
G01 X1.17152 Y-2.31063
G01 X1.17950 Y-2.30483
G01 X1.18780 Y-2.30123
G01 X1.19667 Y-2.29943
G01 X1.20531 Y-2.29945
G01 X1.20957 Y-2.30033
G01 X1.33465 Y-2.17525
G01 X1.33504 Y-0.80286
G01 X1.33661 Y-0.79770
G01 X1.33886 Y-0.79365
G01 X1.34156 Y-0.79038
G01 X1.50906 Y-0.62289
G01 X1.50906 Y-0.43583
G01 X1.50960 Y-0.43084
G01 X1.51102 Y-0.42644
G01 X1.51571 Y-0.41941
G01 X1.55027 Y-0.38482
G01 X1.55196 Y-0.37841
G01 X1.55666 Y-0.37138
G01 X1.58346 Y-0.34454
G01 X1.58346 Y0.32549
G01 X1.57709 Y0.33203
G01 X1.57292 Y0.33912
G01 X1.57044 Y0.34696
G01 X1.56968 Y0.35433
G01 X1.57061 Y0.36250
G01 X1.57310 Y0.36991
G01 X1.57683 Y0.37631
G01 X1.58238 Y0.38238
G01 X1.58875 Y0.38691
G01 X1.59593 Y0.39001
G01 X1.60318 Y0.39153
G01 X1.61140 Y0.39146
G01 X1.61903 Y0.38975
G01 X1.62542 Y0.38691
G01 X1.63211 Y0.38212
G01 X1.63708 Y0.37663
G01 X1.64140 Y0.36916
G01 X1.64373 Y0.36170
G01 X1.64449 Y0.35433
G01 X1.64356 Y0.34616
G01 X1.64107 Y0.33875
G01 X1.63735 Y0.33235
G01 X1.63071 Y0.32549
G01 X1.63031 Y-0.35856
G01 X1.62875 Y-0.36372
G01 X1.62405 Y-0.37075
G01 X1.59697 Y-0.39785
G01 X1.59528 Y-0.40427
G01 X1.59058 Y-0.41130
G01 X1.55630 Y-0.44561
G01 X1.55630 Y-0.63268
G01 X1.55575 Y-0.63766
G01 X1.55252 Y-0.64547
G01 X1.54938 Y-0.64938
G01 X1.38189 Y-0.81687
G01 X1.38149 Y-2.18926
G01 X1.37993 Y-2.19443
G01 X1.37768 Y-2.19847
G01 X1.37497 Y-2.20174
G01 X1.24315 Y-2.33356
G01 X1.24407 Y-2.34211
G01 X1.24321 Y-2.35112
G01 X1.24035 Y-2.36013
G01 X1.23556 Y-2.36829
G01 X1.22944 Y-2.37496
G01 X1.22279 Y-2.37980
G01 X1.21455 Y-2.38356
G01 X1.20490 Y-2.38561
G01 X1.19585 Y-2.38552
G01 X1.18702 Y-2.38356
G01 X1.17950 Y-2.38021
G01 X1.17213 Y-2.37496
G01 X1.16553 Y-2.36763
G01 X1.16108 Y-2.35975
G01 X1.15853 Y-2.35192
G01 X1.15750 Y-2.34293
G04 P0 ( dwell for no time -- G64 should not smooth over this point )
G00 Z0.19685 ( retract )

G00 X1.15750 Y-2.16576 ( rapid move to begin. )
G01 F0.98425
G01 Z-0.01575
G04 P0 ( dwell for no time -- G64 should not smooth over this point )
G01 F1.96850
G01 X1.15750 Y-2.16576
G01 X1.15836 Y-2.15676
G01 X1.16108 Y-2.14812
G01 X1.16601 Y-2.13958
G01 X1.17213 Y-2.13291
G01 X1.17950 Y-2.12766
G01 X1.18780 Y-2.12406
G01 X1.19667 Y-2.12226
G01 X1.20531 Y-2.12228
G01 X1.21455 Y-2.12431
G01 X1.22279 Y-2.12807
G01 X1.22944 Y-2.13291
G01 X1.23582 Y-2.13990
G01 X1.24016 Y-2.14737
G01 X1.24315 Y-2.15635
G01 X1.24407 Y-2.16494
G01 X1.24321 Y-2.17395
G01 X1.24050 Y-2.18258
G01 X1.23556 Y-2.19113
G01 X1.22944 Y-2.19780
G01 X1.22207 Y-2.20305
G01 X1.21377 Y-2.20665
G01 X1.20490 Y-2.20845
G01 X1.19626 Y-2.20842
G01 X1.18702 Y-2.20639
G01 X1.17879 Y-2.20263
G01 X1.17152 Y-2.19725
G01 X1.16575 Y-2.19081
G01 X1.16122 Y-2.18297
G01 X1.15853 Y-2.17476
G01 X1.15750 Y-2.16576
G04 P0 ( dwell for no time -- G64 should not smooth over this point )
G00 Z0.19685 ( retract )

G00 X1.68900 Y-2.34293 ( rapid move to begin. )
G01 F0.98425
G01 Z-0.01575
G04 P0 ( dwell for no time -- G64 should not smooth over this point )
G01 F1.96850
G01 X1.68900 Y-2.34293
G01 X1.68986 Y-2.33392
G01 X1.69272 Y-2.32491
G01 X1.69725 Y-2.31706
G01 X1.70301 Y-2.31063
G01 X1.71028 Y-2.30524
G01 X1.71852 Y-2.30148
G01 X1.72817 Y-2.29943
G01 X1.73681 Y-2.29945
G01 X1.74605 Y-2.30148
G01 X1.75357 Y-2.30483
G01 X1.76094 Y-2.31008
G01 X1.76732 Y-2.31706
G01 X1.77166 Y-2.32454
G01 X1.77464 Y-2.33351
G01 X1.77557 Y-2.34211
G01 X1.77471 Y-2.35112
G01 X1.77199 Y-2.35975
G01 X1.76706 Y-2.36829
G01 X1.76094 Y-2.37496
G01 X1.75357 Y-2.38021
G01 X1.74527 Y-2.38381
G01 X1.73640 Y-2.38561
G01 X1.72776 Y-2.38559
G01 X1.71852 Y-2.38356
G01 X1.71028 Y-2.37980
G01 X1.70301 Y-2.37441
G01 X1.69725 Y-2.36797
G01 X1.69272 Y-2.36013
G01 X1.69003 Y-2.35192
G01 X1.68900 Y-2.34293
G04 P0 ( dwell for no time -- G64 should not smooth over this point )
G00 Z0.19685 ( retract )

G00 X1.94490 Y-2.16576 ( rapid move to begin. )
G01 F0.98425
G01 Z-0.01575
G04 P0 ( dwell for no time -- G64 should not smooth over this point )
G01 F1.96850
G01 X1.94490 Y-2.16576
G01 X1.94593 Y-2.17476
G01 X1.94863 Y-2.18297
G01 X1.95315 Y-2.19081
G01 X1.95892 Y-2.19725
G01 X1.96619 Y-2.20263
G01 X1.97442 Y-2.20639
G01 X1.98366 Y-2.20842
G01 X1.99230 Y-2.20845
G01 X2.00196 Y-2.20639
G01 X2.01019 Y-2.20263
G01 X2.01746 Y-2.19725
G01 X2.02323 Y-2.19081
G01 X2.02775 Y-2.18297
G01 X2.03061 Y-2.17395
G01 X2.03147 Y-2.16494
G01 X2.03044 Y-2.15595
G01 X2.02775 Y-2.14774
G01 X2.02323 Y-2.13990
G01 X2.01746 Y-2.13346
G01 X2.00984 Y-2.12785
G01 X2.00196 Y-2.12431
G01 X1.99272 Y-2.12228
G01 X1.98407 Y-2.12226
G01 X1.97520 Y-2.12406
G01 X1.96690 Y-2.12766
G01 X1.95953 Y-2.13291
G01 X1.95341 Y-2.13958
G01 X1.94863 Y-2.14774
G01 X1.94593 Y-2.15595
G01 X1.94490 Y-2.16576
G04 P0 ( dwell for no time -- G64 should not smooth over this point )
G00 Z0.19685 ( retract )

G00 X2.47640 Y-2.34293 ( rapid move to begin. )
G01 F0.98425
G01 Z-0.01575
G04 P0 ( dwell for no time -- G64 should not smooth over this point )
G01 F1.96850
G01 X2.47640 Y-2.34293
G01 X2.47726 Y-2.33392
G01 X2.48012 Y-2.32491
G01 X2.48465 Y-2.31706
G01 X2.49042 Y-2.31063
G01 X2.49769 Y-2.30524
G01 X2.50592 Y-2.30148
G01 X2.51557 Y-2.29943
G01 X2.52421 Y-2.29945
G01 X2.53345 Y-2.30148
G01 X2.54134 Y-2.30501
G01 X2.54895 Y-2.31063
G01 X2.55472 Y-2.31706
G01 X2.55925 Y-2.32491
G01 X2.56194 Y-2.33312
G01 X2.56297 Y-2.34211
G01 X2.56194 Y-2.35192
G01 X2.55925 Y-2.36013
G01 X2.55446 Y-2.36829
G01 X2.54834 Y-2.37496
G01 X2.54097 Y-2.38021
G01 X2.53307 Y-2.38371
G01 X2.52380 Y-2.38561
G01 X2.51475 Y-2.38552
G01 X2.50630 Y-2.38371
G01 X2.49769 Y-2.37980
G01 X2.49042 Y-2.37441
G01 X2.48465 Y-2.36797
G01 X2.48012 Y-2.36013
G01 X2.47743 Y-2.35192
G01 X2.47640 Y-2.34293
G04 P0 ( dwell for no time -- G64 should not smooth over this point )
G00 Z0.19685 ( retract )

G00 X2.73231 Y-2.16576 ( rapid move to begin. )
G01 F0.98425
G01 Z-0.01575
G04 P0 ( dwell for no time -- G64 should not smooth over this point )
G01 F1.96850
G01 X2.73231 Y-2.16576
G01 X2.73317 Y-2.15676
G01 X2.73588 Y-2.14812
G01 X2.74081 Y-2.13958
G01 X2.74693 Y-2.13291
G01 X2.75430 Y-2.12766
G01 X2.76221 Y-2.12417
G01 X2.77148 Y-2.12226
G01 X2.78012 Y-2.12228
G01 X2.78936 Y-2.12431
G01 X2.79724 Y-2.12785
G01 X2.80486 Y-2.13346
G01 X2.81063 Y-2.13990
G01 X2.81515 Y-2.14774
G01 X2.81784 Y-2.15595
G01 X2.81888 Y-2.16494
G01 X2.81801 Y-2.17395
G01 X2.81515 Y-2.18297
G01 X2.81063 Y-2.19081
G01 X2.80486 Y-2.19725
G01 X2.79759 Y-2.20263
G01 X2.78936 Y-2.20639
G01 X2.77970 Y-2.20845
G01 X2.77106 Y-2.20842
G01 X2.76182 Y-2.20639
G01 X2.75394 Y-2.20286
G01 X2.74693 Y-2.19780
G01 X2.74055 Y-2.19081
G01 X2.73603 Y-2.18297
G01 X2.73334 Y-2.17476
G01 X2.73231 Y-2.16576
G04 P0 ( dwell for no time -- G64 should not smooth over this point )
G00 Z0.19685 ( retract )

G00 X3.26380 Y-2.34293 ( rapid move to begin. )
G01 F0.98425
G01 Z-0.01575
G04 P0 ( dwell for no time -- G64 should not smooth over this point )
G01 F1.96850
G01 X3.26380 Y-2.34293
G01 X3.26466 Y-2.33392
G01 X3.26737 Y-2.32529
G01 X3.27231 Y-2.31674
G01 X3.27843 Y-2.31008
G01 X3.28580 Y-2.30483
G01 X3.29370 Y-2.30133
G01 X3.30297 Y-2.29943
G01 X3.31161 Y-2.29945
G01 X3.32085 Y-2.30148
G01 X3.32874 Y-2.30501
G01 X3.33636 Y-2.31063
G01 X3.34212 Y-2.31706
G01 X3.34665 Y-2.32491
G01 X3.34934 Y-2.33312
G01 X3.35037 Y-2.34211
G01 X3.34951 Y-2.35112
G01 X3.34680 Y-2.35975
G01 X3.34186 Y-2.36829
G01 X3.33574 Y-2.37496
G01 X3.32837 Y-2.38021
G01 X3.32047 Y-2.38371
G01 X3.31120 Y-2.38561
G01 X3.30256 Y-2.38559
G01 X3.29332 Y-2.38356
G01 X3.28543 Y-2.38002
G01 X3.27843 Y-2.37496
G01 X3.27205 Y-2.36797
G01 X3.26752 Y-2.36013
G01 X3.26483 Y-2.35192
G01 X3.26380 Y-2.34293
G04 P0 ( dwell for no time -- G64 should not smooth over this point )
G00 Z0.19685 ( retract )

G00 X3.51971 Y-2.16576 ( rapid move to begin. )
G01 F0.98425
G01 Z-0.01575
G04 P0 ( dwell for no time -- G64 should not smooth over this point )
G01 F1.96850
G01 X3.51971 Y-2.16576
G01 X3.52057 Y-2.15676
G01 X3.52328 Y-2.14812
G01 X3.52821 Y-2.13958
G01 X3.53433 Y-2.13291
G01 X3.54170 Y-2.12766
G01 X3.54961 Y-2.12417
G01 X3.55888 Y-2.12226
G01 X3.56752 Y-2.12228
G01 X3.57676 Y-2.12431
G01 X3.58465 Y-2.12785
G01 X3.59226 Y-2.13346
G01 X3.59803 Y-2.13990
G01 X3.60256 Y-2.14774
G01 X3.60525 Y-2.15595
G01 X3.60628 Y-2.16494
G01 X3.60542 Y-2.17395
G01 X3.60256 Y-2.18297
G01 X3.59803 Y-2.19081
G01 X3.59226 Y-2.19725
G01 X3.58499 Y-2.20263
G01 X3.57676 Y-2.20639
G01 X3.56711 Y-2.20845
G01 X3.55806 Y-2.20836
G01 X3.54961 Y-2.20654
G01 X3.54099 Y-2.20263
G01 X3.53372 Y-2.19725
G01 X3.52795 Y-2.19081
G01 X3.52343 Y-2.18297
G01 X3.52074 Y-2.17476
G01 X3.51971 Y-2.16576
G04 P0 ( dwell for no time -- G64 should not smooth over this point )
G00 Z0.19685 ( retract )

G00 X4.05120 Y-2.34293 ( rapid move to begin. )
G01 F0.98425
G01 Z-0.01575
G04 P0 ( dwell for no time -- G64 should not smooth over this point )
G01 F1.96850
G01 X4.05120 Y-2.34293
G01 X4.05213 Y-2.35152
G01 X4.05478 Y-2.35975
G01 X4.05923 Y-2.36763
G01 X4.06522 Y-2.37441
G01 X4.07249 Y-2.37980
G01 X4.08110 Y-2.38371
G01 X4.08955 Y-2.38552
G01 X4.09860 Y-2.38561
G01 X4.10787 Y-2.38371
G01 X4.11577 Y-2.38021
G01 X4.12315 Y-2.37496
G01 X4.12927 Y-2.36829
G01 X4.13386 Y-2.36050
G01 X4.13674 Y-2.35192
G01 X4.13777 Y-2.34211
G01 X4.13685 Y-2.33351
G01 X4.13386 Y-2.32454
G01 X4.12927 Y-2.31674
G01 X4.12315 Y-2.31008
G01 X4.11577 Y-2.30483
G01 X4.10787 Y-2.30133
G01 X4.09942 Y-2.29951
G01 X4.09037 Y-2.29943
G01 X4.08072 Y-2.30148
G01 X4.07249 Y-2.30524
G01 X4.06522 Y-2.31063
G01 X4.05923 Y-2.31741
G01 X4.05478 Y-2.32529
G01 X4.05213 Y-2.33351
G01 X4.05120 Y-2.34293
G04 P0 ( dwell for no time -- G64 should not smooth over this point )
G00 Z0.19685 ( retract )

G00 X4.30711 Y-2.16576 ( rapid move to begin. )
G01 F0.98425
G01 Z-0.01575
G04 P0 ( dwell for no time -- G64 should not smooth over this point )
G01 F1.96850
G01 X4.30711 Y-2.16576
G01 X4.30803 Y-2.17436
G01 X4.31102 Y-2.18334
G01 X4.31562 Y-2.19113
G01 X4.32174 Y-2.19780
G01 X4.32911 Y-2.20305
G01 X4.33701 Y-2.20654
G01 X4.34546 Y-2.20836
G01 X4.35451 Y-2.20845
G01 X4.36416 Y-2.20639
G01 X4.37239 Y-2.20263
G01 X4.37966 Y-2.19725
G01 X4.38565 Y-2.19046
G01 X4.39010 Y-2.18258
G01 X4.39275 Y-2.17436
G01 X4.39368 Y-2.16494
G01 X4.39275 Y-2.15635
G01 X4.39010 Y-2.14812
G01 X4.38565 Y-2.14024
G01 X4.37966 Y-2.13346
G01 X4.37239 Y-2.12807
G01 X4.36378 Y-2.12417
G01 X4.35533 Y-2.12235
G01 X4.34628 Y-2.12226
G01 X4.33701 Y-2.12417
G01 X4.32911 Y-2.12766
G01 X4.32174 Y-2.13291
G01 X4.31562 Y-2.13958
G01 X4.31102 Y-2.14737
G01 X4.30814 Y-2.15595
G01 X4.30711 Y-2.16576
G04 P0 ( dwell for no time -- G64 should not smooth over this point )
G00 Z0.19685 ( retract )

G00 X4.24606 Y-3.04331 ( rapid move to begin. )
G01 F0.98425
G01 Z-0.01575
G04 P0 ( dwell for no time -- G64 should not smooth over this point )
G01 F1.96850
G01 X4.24606 Y-3.04331
G01 X4.24673 Y-3.04549
G01 X4.24923 Y-3.04717
G01 X4.27027 Y-3.04724
G01 X4.27658 Y-3.04968
G01 X4.28150 Y-3.05020
G01 X4.31436 Y-3.05018
G01 X4.32265 Y-3.04853
G01 X4.32741 Y-3.04598
G01 X4.62300 Y-2.75095
G01 X4.62614 Y-2.74704
G01 X4.62825 Y-2.74293
G01 X4.62952 Y-2.73848
G01 X4.62992 Y-2.73425
G01 X4.62952 Y-0.21428
G01 X4.62796 Y-0.20911
G01 X4.62571 Y-0.20507
G01 X4.62300 Y-0.20180
G01 X4.34449 Y0.07671
G01 X4.34449 Y0.10236
G01 X4.35313 Y0.10244
G01 X4.35515 Y0.10351
G01 X4.35622 Y0.10553
G01 X4.35600 Y0.14127
G01 X4.35515 Y0.14255
G01 X4.35313 Y0.14363
G01 X4.33203 Y0.14370
G01 X4.32821 Y0.14548
G01 X4.32292 Y0.14655
G01 X4.31799 Y0.14646
G01 X4.31396 Y0.14560
G01 X4.30970 Y0.14370
G01 X4.28860 Y0.14363
G01 X4.28659 Y0.14255
G01 X4.28551 Y0.14053
G01 X4.28551 Y0.10553
G01 X4.28659 Y0.10351
G01 X4.28860 Y0.10244
G01 X4.29724 Y0.10236
G01 X4.29726 Y0.06654
G01 X4.29891 Y0.05825
G01 X4.30145 Y0.05350
G01 X4.58268 Y-0.22829
G01 X4.58268 Y-2.72447
G01 X4.30419 Y-3.00295
G01 X4.28108 Y-3.00297
G01 X4.27619 Y-3.00358
G01 X4.27027 Y-3.00590
G01 X4.25000 Y-3.00590
G01 X4.24722 Y-3.00706
G01 X4.24606 Y-3.00984
G01 X4.24606 Y-3.04331
G04 P0 ( dwell for no time -- G64 should not smooth over this point )
G00 Z0.19685 ( retract )

G00 X3.45866 Y-3.04331 ( rapid move to begin. )
G01 F0.98425
G01 Z-0.01575
G04 P0 ( dwell for no time -- G64 should not smooth over this point )
G01 F1.96850
G01 X3.45866 Y-3.04331
G01 X3.45932 Y-3.04549
G01 X3.46183 Y-3.04717
G01 X3.48287 Y-3.04724
G01 X3.48918 Y-3.04968
G01 X3.49409 Y-3.05020
G01 X4.00816 Y-3.04980
G01 X4.01333 Y-3.04823
G01 X4.01737 Y-3.04598
G01 X4.02064 Y-3.04328
G01 X4.08262 Y-2.98130
G01 X4.14370 Y-2.98130
G01 X4.14861 Y-2.98078
G01 X4.15493 Y-2.97835
G01 X4.17520 Y-2.97835
G01 X4.17738 Y-2.97768
G01 X4.17883 Y-2.97592
G01 X4.17913 Y-2.97441
G01 X4.17906 Y-2.94018
G01 X4.17798 Y-2.93816
G01 X4.17596 Y-2.93708
G01 X4.15493 Y-2.93701
G01 X4.14861 Y-2.93457
G01 X4.14370 Y-2.93405
G01 X4.07283 Y-2.93405
G01 X4.06861 Y-2.93445
G01 X4.06416 Y-2.93572
G01 X4.06004 Y-2.93784
G01 X4.05613 Y-2.94097
G01 X3.99415 Y-3.00295
G01 X3.49409 Y-3.00295
G01 X3.48918 Y-3.00347
G01 X3.48287 Y-3.00590
G01 X3.46183 Y-3.00598
G01 X3.45981 Y-3.00706
G01 X3.45866 Y-3.00984
G01 X3.45866 Y-3.04331
G04 P0 ( dwell for no time -- G64 should not smooth over this point )
G00 Z0.19685 ( retract )

G00 X2.67126 Y-3.04331 ( rapid move to begin. )
G01 F0.98425
G01 Z-0.01575
G04 P0 ( dwell for no time -- G64 should not smooth over this point )
G01 F1.96850
G01 X2.67126 Y-3.04331
G01 X2.67126 Y-3.00984
G01 X2.67241 Y-3.00706
G01 X2.67443 Y-3.00598
G01 X2.69546 Y-3.00590
G01 X2.70178 Y-3.00347
G01 X2.70669 Y-3.00295
G01 X3.20675 Y-3.00295
G01 X3.26873 Y-2.94097
G01 X3.27264 Y-2.93784
G01 X3.27676 Y-2.93572
G01 X3.28121 Y-2.93445
G01 X3.28543 Y-2.93405
G01 X3.35630 Y-2.93405
G01 X3.36121 Y-2.93457
G01 X3.36753 Y-2.93701
G01 X3.38856 Y-2.93708
G01 X3.39058 Y-2.93816
G01 X3.39166 Y-2.94018
G01 X3.39173 Y-2.97441
G01 X3.39143 Y-2.97592
G01 X3.38998 Y-2.97768
G01 X3.38780 Y-2.97835
G01 X3.36753 Y-2.97835
G01 X3.36121 Y-2.98078
G01 X3.35630 Y-2.98130
G01 X3.29522 Y-2.98130
G01 X3.23324 Y-3.04328
G01 X3.22997 Y-3.04598
G01 X3.22592 Y-3.04823
G01 X3.22076 Y-3.04980
G01 X2.70669 Y-3.05020
G01 X2.70178 Y-3.04968
G01 X2.69546 Y-3.04724
G01 X2.67443 Y-3.04717
G01 X2.67241 Y-3.04609
G01 X2.67126 Y-3.04331
G04 P0 ( dwell for no time -- G64 should not smooth over this point )
G00 Z0.19685 ( retract )

G00 X1.88386 Y-3.04331 ( rapid move to begin. )
G01 F0.98425
G01 Z-0.01575
G04 P0 ( dwell for no time -- G64 should not smooth over this point )
G01 F1.96850
G01 X1.88386 Y-3.04331
G01 X1.88386 Y-3.00984
G01 X1.88501 Y-3.00706
G01 X1.88703 Y-3.00598
G01 X1.90806 Y-3.00590
G01 X1.91438 Y-3.00347
G01 X1.91929 Y-3.00295
G01 X2.41935 Y-3.00295
G01 X2.48133 Y-2.94097
G01 X2.48524 Y-2.93784
G01 X2.48936 Y-2.93572
G01 X2.49381 Y-2.93445
G01 X2.49803 Y-2.93405
G01 X2.56890 Y-2.93405
G01 X2.57381 Y-2.93457
G01 X2.58013 Y-2.93701
G01 X2.60116 Y-2.93708
G01 X2.60318 Y-2.93816
G01 X2.60426 Y-2.94018
G01 X2.60433 Y-2.97441
G01 X2.60403 Y-2.97592
G01 X2.60258 Y-2.97768
G01 X2.60039 Y-2.97835
G01 X2.58012 Y-2.97835
G01 X2.57381 Y-2.98078
G01 X2.56890 Y-2.98130
G01 X2.50782 Y-2.98130
G01 X2.44584 Y-3.04328
G01 X2.44257 Y-3.04598
G01 X2.43852 Y-3.04823
G01 X2.43336 Y-3.04980
G01 X1.91929 Y-3.05020
G01 X1.91438 Y-3.04968
G01 X1.90806 Y-3.04724
G01 X1.88703 Y-3.04717
G01 X1.88452 Y-3.04549
G01 X1.88386 Y-3.04331
G04 P0 ( dwell for no time -- G64 should not smooth over this point )
G00 Z0.19685 ( retract )

G00 X1.09646 Y-3.04331 ( rapid move to begin. )
G01 F0.98425
G01 Z-0.01575
G04 P0 ( dwell for no time -- G64 should not smooth over this point )
G01 F1.96850
G01 X1.09646 Y-3.04331
G01 X1.09646 Y-3.00984
G01 X1.09761 Y-3.00706
G01 X1.10039 Y-3.00590
G01 X1.12066 Y-3.00590
G01 X1.12658 Y-3.00358
G01 X1.13148 Y-3.00297
G01 X1.15458 Y-3.00295
G01 X1.21656 Y-2.94097
G01 X1.21983 Y-2.93827
G01 X1.22388 Y-2.93602
G01 X1.22904 Y-2.93445
G01 X1.78150 Y-2.93405
G01 X1.78641 Y-2.93457
G01 X1.79272 Y-2.93701
G01 X1.81376 Y-2.93708
G01 X1.81578 Y-2.93816
G01 X1.81685 Y-2.94018
G01 X1.81693 Y-2.97441
G01 X1.81578 Y-2.97719
G01 X1.81299 Y-2.97835
G01 X1.79272 Y-2.97835
G01 X1.78680 Y-2.98068
G01 X1.78191 Y-2.98128
G01 X1.24305 Y-2.98130
G01 X1.18107 Y-3.04328
G01 X1.17780 Y-3.04598
G01 X1.17376 Y-3.04823
G01 X1.16935 Y-3.04965
G01 X1.16437 Y-3.05020
G01 X1.13148 Y-3.05017
G01 X1.12658 Y-3.04957
G01 X1.12066 Y-3.04724
G01 X1.09963 Y-3.04717
G01 X1.09761 Y-3.04609
G01 X1.09646 Y-3.04331
G04 P0 ( dwell for no time -- G64 should not smooth over this point )
G00 Z0.19685 ( retract )

G00 X0.26969 Y-3.04331 ( rapid move to begin. )
G01 F0.98425
G01 Z-0.01575
G04 P0 ( dwell for no time -- G64 should not smooth over this point )
G01 F1.96850
G01 X0.26969 Y-3.04331
G01 X0.26969 Y-3.00984
G01 X0.27084 Y-3.00706
G01 X0.27362 Y-3.00590
G01 X0.29389 Y-3.00590
G01 X0.29981 Y-3.00358
G01 X0.30471 Y-3.00297
G01 X0.84455 Y-3.00295
G01 X0.90653 Y-2.94097
G01 X0.91044 Y-2.93784
G01 X0.91455 Y-2.93572
G01 X0.91900 Y-2.93445
G01 X0.92323 Y-2.93405
G01 X0.99409 Y-2.93405
G01 X0.99901 Y-2.93457
G01 X1.00532 Y-2.93701
G01 X1.02636 Y-2.93708
G01 X1.02837 Y-2.93816
G01 X1.02945 Y-2.94018
G01 X1.02953 Y-2.97441
G01 X1.02886 Y-2.97660
G01 X1.02778 Y-2.97768
G01 X1.02559 Y-2.97835
G01 X1.00532 Y-2.97835
G01 X0.99901 Y-2.98078
G01 X0.99409 Y-2.98130
G01 X0.93301 Y-2.98130
G01 X0.87103 Y-3.04328
G01 X0.86776 Y-3.04598
G01 X0.86372 Y-3.04823
G01 X0.85856 Y-3.04980
G01 X0.30512 Y-3.05020
G01 X0.30021 Y-3.04968
G01 X0.29389 Y-3.04724
G01 X0.27285 Y-3.04717
G01 X0.27035 Y-3.04549
G01 X0.26969 Y-3.04331
G04 P0 ( dwell for no time -- G64 should not smooth over this point )
G00 Z0.19685 ( retract )

G00 X0.26969 Y-2.97441 ( rapid move to begin. )
G01 F0.98425
G01 Z-0.01575
G04 P0 ( dwell for no time -- G64 should not smooth over this point )
G01 F1.96850
G01 X0.26969 Y-2.97441
G01 X0.26969 Y-2.94094
G01 X0.27084 Y-2.93816
G01 X0.27362 Y-2.93701
G01 X0.29389 Y-2.93701
G01 X0.30021 Y-2.93457
G01 X0.31010 Y-2.93405
G01 X0.35957 Y-2.88461
G01 X0.36319 Y-2.88173
G01 X0.36731 Y-2.87962
G01 X0.37176 Y-2.87835
G01 X0.37598 Y-2.87795
G01 X4.27171 Y-2.87795
G01 X4.51378 Y-2.63588
G01 X4.51378 Y-0.29719
G01 X4.16637 Y0.05022
G01 X4.16323 Y0.05414
G01 X4.16112 Y0.05825
G01 X4.15947 Y0.06654
G01 X4.15945 Y0.10236
G01 X4.15081 Y0.10244
G01 X4.14879 Y0.10351
G01 X4.14771 Y0.10553
G01 X4.14764 Y0.13976
G01 X4.14830 Y0.14195
G01 X4.15007 Y0.14340
G01 X4.15157 Y0.14370
G01 X4.17183 Y0.14370
G01 X4.17809 Y0.14611
G01 X4.18268 Y0.14663
G01 X4.20577 Y0.14665
G01 X4.22835 Y0.16923
G01 X4.22835 Y0.33540
G01 X4.05194 Y0.51181
G01 X3.37790 Y0.51181
G01 X3.26417 Y0.39809
G01 X3.26377 Y0.38357
G01 X3.26221 Y0.37841
G01 X3.25751 Y0.37138
G01 X3.24413 Y0.35796
G01 X3.24447 Y0.35392
G01 X3.24374 Y0.34696
G01 X3.24140 Y0.33950
G01 X3.23734 Y0.33235
G01 X3.23179 Y0.32628
G01 X3.22542 Y0.32175
G01 X3.21903 Y0.31891
G01 X3.21140 Y0.31720
G01 X3.20277 Y0.31720
G01 X3.19514 Y0.31891
G01 X3.18875 Y0.32175
G01 X3.18177 Y0.32683
G01 X3.17660 Y0.33269
G01 X3.17277 Y0.33950
G01 X3.17050 Y0.34655
G01 X3.16971 Y0.35392
G01 X3.17050 Y0.36211
G01 X3.17277 Y0.36916
G01 X3.17683 Y0.37631
G01 X3.18177 Y0.38183
G01 X3.18838 Y0.38672
G01 X3.19514 Y0.38975
G01 X3.20277 Y0.39146
G01 X3.21087 Y0.39152
G01 X3.21693 Y0.39758
G01 X3.21748 Y0.41286
G01 X3.22071 Y0.42067
G01 X3.22385 Y0.42458
G01 X3.35141 Y0.55214
G01 X3.35468 Y0.55484
G01 X3.35872 Y0.55709
G01 X3.36313 Y0.55851
G01 X3.36811 Y0.55905
G01 X4.06172 Y0.55905
G01 X4.06671 Y0.55851
G01 X4.07451 Y0.55527
G01 X4.07843 Y0.55214
G01 X4.26893 Y0.36161
G01 X4.27181 Y0.35798
G01 X4.27392 Y0.35386
G01 X4.27519 Y0.34941
G01 X4.27559 Y0.34519
G01 X4.27559 Y0.15945
G01 X4.27504 Y0.15446
G01 X4.27363 Y0.15006
G01 X4.26893 Y0.14303
G01 X4.22898 Y0.10362
G01 X4.22494 Y0.10137
G01 X4.21978 Y0.09981
G01 X4.20669 Y0.09941
G01 X4.20669 Y0.07671
G01 X4.55410 Y-0.27070
G01 X4.55681 Y-0.27397
G01 X4.55906 Y-0.27801
G01 X4.56048 Y-0.28242
G01 X4.56102 Y-0.28740
G01 X4.56100 Y-2.64605
G01 X4.56048 Y-2.65065
G01 X4.55906 Y-2.65506
G01 X4.55681 Y-2.65910
G01 X4.55410 Y-2.66237
G01 X4.30512 Y-2.91136
G01 X4.30512 Y-2.93701
G01 X4.31376 Y-2.93708
G01 X4.31578 Y-2.93816
G01 X4.31685 Y-2.94018
G01 X4.31693 Y-2.97441
G01 X4.31578 Y-2.97719
G01 X4.31299 Y-2.97835
G01 X4.29266 Y-2.97835
G01 X4.28884 Y-2.98013
G01 X4.28355 Y-2.98119
G01 X4.27862 Y-2.98110
G01 X4.27459 Y-2.98025
G01 X4.27033 Y-2.97835
G01 X4.25000 Y-2.97835
G01 X4.24722 Y-2.97719
G01 X4.24606 Y-2.97441
G01 X4.24614 Y-2.94018
G01 X4.24722 Y-2.93816
G01 X4.24923 Y-2.93708
G01 X4.25787 Y-2.93701
G01 X4.25787 Y-2.92520
G01 X3.57475 Y-2.92520
G01 X3.52953 Y-2.97041
G01 X3.52945 Y-2.97518
G01 X3.52837 Y-2.97719
G01 X3.52636 Y-2.97827
G01 X3.52010 Y-2.97835
G01 X3.51384 Y-2.98075
G01 X3.50886 Y-2.98130
G01 X3.48959 Y-2.98085
G01 X3.48287 Y-2.97835
G01 X3.46183 Y-2.97827
G01 X3.45981 Y-2.97719
G01 X3.45866 Y-2.97441
G01 X3.45866 Y-2.94094
G01 X3.45981 Y-2.93816
G01 X3.46260 Y-2.93701
G01 X3.48287 Y-2.93701
G01 X3.48918 Y-2.93457
G01 X3.49907 Y-2.93405
G01 X3.50793 Y-2.92520
G01 X2.78734 Y-2.92520
G01 X2.74213 Y-2.97041
G01 X2.74205 Y-2.97518
G01 X2.74097 Y-2.97719
G01 X2.73896 Y-2.97827
G01 X2.73270 Y-2.97835
G01 X2.72644 Y-2.98075
G01 X2.72146 Y-2.98130
G01 X2.70219 Y-2.98085
G01 X2.69546 Y-2.97835
G01 X2.67443 Y-2.97827
G01 X2.67241 Y-2.97719
G01 X2.67126 Y-2.97441
G01 X2.67126 Y-2.94094
G01 X2.67241 Y-2.93816
G01 X2.67520 Y-2.93701
G01 X2.69546 Y-2.93701
G01 X2.70178 Y-2.93457
G01 X2.71167 Y-2.93405
G01 X2.72053 Y-2.92520
G01 X1.99994 Y-2.92520
G01 X1.95472 Y-2.97041
G01 X1.95465 Y-2.97518
G01 X1.95357 Y-2.97719
G01 X1.95155 Y-2.97827
G01 X1.94529 Y-2.97835
G01 X1.93904 Y-2.98075
G01 X1.93406 Y-2.98130
G01 X1.91479 Y-2.98085
G01 X1.90806 Y-2.97835
G01 X1.88703 Y-2.97827
G01 X1.88501 Y-2.97719
G01 X1.88386 Y-2.97441
G01 X1.88386 Y-2.94094
G01 X1.88501 Y-2.93816
G01 X1.88779 Y-2.93701
G01 X1.90806 Y-2.93701
G01 X1.91438 Y-2.93457
G01 X1.92427 Y-2.93405
G01 X1.93313 Y-2.92520
G01 X1.21254 Y-2.92520
G01 X1.16732 Y-2.97041
G01 X1.16725 Y-2.97518
G01 X1.16617 Y-2.97719
G01 X1.16415 Y-2.97827
G01 X1.15789 Y-2.97835
G01 X1.15164 Y-2.98075
G01 X1.14665 Y-2.98130
G01 X1.12739 Y-2.98085
G01 X1.12066 Y-2.97835
G01 X1.09963 Y-2.97827
G01 X1.09761 Y-2.97719
G01 X1.09646 Y-2.97441
G01 X1.09646 Y-2.94094
G01 X1.09761 Y-2.93816
G01 X1.10039 Y-2.93701
G01 X1.12066 Y-2.93701
G01 X1.12698 Y-2.93457
G01 X1.13687 Y-2.93405
G01 X1.14573 Y-2.92520
G01 X0.38577 Y-2.92520
G01 X0.34055 Y-2.97041
G01 X0.34025 Y-2.97592
G01 X0.33812 Y-2.97805
G01 X0.33112 Y-2.97835
G01 X0.32411 Y-2.98090
G01 X0.30512 Y-2.98130
G01 X0.30021 Y-2.98078
G01 X0.29389 Y-2.97835
G01 X0.27285 Y-2.97827
G01 X0.27035 Y-2.97660
G01 X0.26969 Y-2.97441
G04 P0 ( dwell for no time -- G64 should not smooth over this point )
G00 Z0.19685 ( retract )

G00 X0.13189 Y-2.97441 ( rapid move to begin. )
G01 F0.98425
G01 Z-0.01575
G04 P0 ( dwell for no time -- G64 should not smooth over this point )
G01 F1.96850
G01 X0.13189 Y-2.97441
G01 X0.13189 Y-2.94094
G01 X0.13255 Y-2.93876
G01 X0.13432 Y-2.93731
G01 X0.19882 Y-2.93701
G01 X0.20101 Y-2.93767
G01 X0.20246 Y-2.93944
G01 X0.20275 Y-2.97441
G01 X0.20209 Y-2.97660
G01 X0.20033 Y-2.97805
G01 X0.13583 Y-2.97835
G01 X0.13304 Y-2.97719
G01 X0.13189 Y-2.97441
G04 P0 ( dwell for no time -- G64 should not smooth over this point )
G00 Z0.19685 ( retract )

G00 X0.05512 Y-3.00886 ( rapid move to begin. )
G01 F0.98425
G01 Z-0.01575
G04 P0 ( dwell for no time -- G64 should not smooth over this point )
G01 F1.96850
G01 X0.05512 Y-3.00886
G01 X0.05512 Y-2.85590
G01 X0.05566 Y-2.85092
G01 X0.05890 Y-2.84311
G01 X0.06204 Y-2.83920
G01 X0.38155 Y-2.51968
G01 X0.27857 Y-2.41670
G01 X0.27586 Y-2.41343
G01 X0.27362 Y-2.40939
G01 X0.27220 Y-2.40498
G01 X0.27167 Y-2.40038
G01 X0.27205 Y-2.20388
G01 X0.27362 Y-2.19871
G01 X0.27831 Y-2.19168
G01 X0.30163 Y-2.16834
G01 X0.30490 Y-2.16563
G01 X0.30895 Y-2.16338
G01 X0.31709 Y-2.16152
G01 X0.25863 Y-2.10303
G01 X0.25393 Y-2.09600
G01 X0.25252 Y-2.09160
G01 X0.25199 Y-2.08700
G01 X0.25199 Y-1.47599
G01 X0.25252 Y-1.47139
G01 X0.25393 Y-1.46699
G01 X0.25863 Y-1.45996
G01 X0.33165 Y-1.38691
G01 X0.33073 Y-1.37836
G01 X0.33165 Y-1.36899
G01 X0.21952 Y-1.25686
G01 X0.21681 Y-1.25359
G01 X0.21456 Y-1.24955
G01 X0.21299 Y-1.24438
G01 X0.21260 Y-0.72835
G01 X0.21315 Y-0.72336
G01 X0.21638 Y-0.71555
G01 X0.21952 Y-0.71164
G01 X0.33166 Y-0.59950
G01 X0.33073 Y-0.59014
G01 X0.33176 Y-0.58115
G01 X0.33445 Y-0.57294
G01 X0.33924 Y-0.56478
G01 X0.34475 Y-0.55866
G01 X0.35039 Y-0.55445
G01 X0.35039 Y-0.27094
G01 X0.35079 Y-0.26672
G01 X0.35206 Y-0.26227
G01 X0.35460 Y-0.25751
G01 X1.05869 Y0.44658
G01 X1.06345 Y0.44912
G01 X1.06790 Y0.45039
G01 X1.07212 Y0.45079
G01 X3.07179 Y0.45079
G01 X3.22826 Y0.60725
G01 X3.23153 Y0.60996
G01 X3.23557 Y0.61221
G01 X3.24074 Y0.61378
G01 X4.07620 Y0.61417
G01 X4.08043 Y0.61378
G01 X4.08488 Y0.61250
G01 X4.08899 Y0.61039
G01 X4.09291 Y0.60725
G01 X4.34028 Y0.35932
G01 X4.34282 Y0.35456
G01 X4.34409 Y0.35011
G01 X4.34449 Y0.34589
G01 X4.34449 Y0.21260
G01 X4.35313 Y0.21252
G01 X4.35515 Y0.21144
G01 X4.35600 Y0.21017
G01 X4.35622 Y0.17443
G01 X4.35515 Y0.17241
G01 X4.35313 Y0.17133
G01 X4.33203 Y0.17126
G01 X4.32821 Y0.16948
G01 X4.32292 Y0.16841
G01 X4.31799 Y0.16850
G01 X4.31396 Y0.16936
G01 X4.30970 Y0.17126
G01 X4.28860 Y0.17133
G01 X4.28659 Y0.17241
G01 X4.28543 Y0.17520
G01 X4.28551 Y0.20943
G01 X4.28659 Y0.21144
G01 X4.28860 Y0.21252
G01 X4.29724 Y0.21260
G01 X4.29724 Y0.33610
G01 X4.06642 Y0.56693
G01 X3.25475 Y0.56693
G01 X3.11498 Y0.42717
G01 X3.12405 Y0.41807
G01 X3.12874 Y0.41104
G01 X3.13016 Y0.40664
G01 X3.13069 Y0.40204
G01 X3.13071 Y0.38317
G01 X3.13757 Y0.37597
G01 X3.14140 Y0.36916
G01 X3.14373 Y0.36170
G01 X3.14447 Y0.35392
G01 X3.14356 Y0.34616
G01 X3.14140 Y0.33950
G01 X3.13757 Y0.33269
G01 X3.13071 Y0.32549
G01 X3.13071 Y0.31679
G01 X3.22703 Y0.22047
G01 X3.31108 Y0.22047
G01 X3.46491 Y0.37374
G01 X3.46967 Y0.37628
G01 X3.47796 Y0.37793
G01 X3.51378 Y0.37795
G01 X3.51378 Y0.38780
G01 X3.51493 Y0.39058
G01 X3.51772 Y0.39173
G01 X3.52756 Y0.39173
G01 X3.52756 Y0.42717
G01 X3.52811 Y0.43215
G01 X3.52952 Y0.43655
G01 X3.53177 Y0.44060
G01 X3.53476 Y0.44413
G01 X3.53839 Y0.44700
G01 X3.54620 Y0.45024
G01 X3.55118 Y0.45079
G01 X3.97273 Y0.45039
G01 X3.97789 Y0.44882
G01 X3.98492 Y0.44413
G01 X3.98791 Y0.44060
G01 X3.99046 Y0.43584
G01 X3.99173 Y0.43139
G01 X3.99213 Y0.42717
G01 X3.99213 Y0.39173
G01 X4.00274 Y0.39166
G01 X4.00475 Y0.39058
G01 X4.00583 Y0.38856
G01 X4.00591 Y0.32087
G01 X4.00475 Y0.31808
G01 X4.00197 Y0.31693
G01 X3.93504 Y0.31693
G01 X3.93226 Y0.31808
G01 X3.93110 Y0.32087
G01 X3.93118 Y0.38856
G01 X3.93226 Y0.39058
G01 X3.93427 Y0.39166
G01 X3.94488 Y0.39173
G01 X3.94488 Y0.40354
G01 X3.57480 Y0.40354
G01 X3.57480 Y0.39173
G01 X3.58541 Y0.39166
G01 X3.58743 Y0.39058
G01 X3.58851 Y0.38856
G01 X3.58858 Y0.32087
G01 X3.58743 Y0.31808
G01 X3.58465 Y0.31693
G01 X3.51695 Y0.31700
G01 X3.51493 Y0.31808
G01 X3.51385 Y0.32010
G01 X3.51378 Y0.33071
G01 X3.48813 Y0.33071
G01 X3.33757 Y0.18015
G01 X3.33430 Y0.17744
G01 X3.33026 Y0.17519
G01 X3.32585 Y0.17378
G01 X3.32125 Y0.17325
G01 X3.21685 Y0.17325
G01 X3.21226 Y0.17378
G01 X3.20785 Y0.17519
G01 X3.20381 Y0.17744
G01 X3.20054 Y0.18015
G01 X3.09038 Y0.29030
G01 X3.08725 Y0.29421
G01 X3.08513 Y0.29833
G01 X3.08386 Y0.30278
G01 X3.08346 Y0.32549
G01 X3.07683 Y0.33235
G01 X3.07310 Y0.33875
G01 X3.07050 Y0.34655
G01 X3.06971 Y0.35392
G01 X3.07050 Y0.36211
G01 X3.07310 Y0.36991
G01 X3.07683 Y0.37631
G01 X3.08346 Y0.38317
G01 X3.08346 Y0.39187
G01 X3.07179 Y0.40354
G01 X1.08191 Y0.40354
G01 X0.39764 Y-0.28073
G01 X0.39764 Y-0.55445
G01 X0.40329 Y-0.55866
G01 X0.40879 Y-0.56478
G01 X0.41358 Y-0.57294
G01 X0.41627 Y-0.58115
G01 X0.41730 Y-0.59014
G01 X0.41627 Y-0.59995
G01 X0.41358 Y-0.60816
G01 X0.40905 Y-0.61601
G01 X0.40329 Y-0.62244
G01 X0.39567 Y-0.62806
G01 X0.38700 Y-0.63184
G01 X0.37854 Y-0.63362
G01 X0.36990 Y-0.63364
G01 X0.36523 Y-0.63274
G01 X0.25984 Y-0.73813
G01 X0.25984 Y-1.23037
G01 X0.36523 Y-1.33577
G01 X0.36949 Y-1.33488
G01 X0.37813 Y-1.33486
G01 X0.38700 Y-1.33666
G01 X0.39567 Y-1.34045
G01 X0.40299 Y-1.34577
G01 X0.40928 Y-1.35284
G01 X0.41358 Y-1.36034
G01 X0.41638 Y-1.36895
G01 X0.41730 Y-1.37754
G01 X0.41638 Y-1.38696
G01 X0.41358 Y-1.39557
G01 X0.40928 Y-1.40306
G01 X0.40299 Y-1.41014
G01 X0.39567 Y-1.41546
G01 X0.38700 Y-1.41925
G01 X0.37813 Y-1.42104
G01 X0.36949 Y-1.42102
G01 X0.36523 Y-1.42014
G01 X0.29921 Y-1.48616
G01 X0.29921 Y-2.07683
G01 X0.36523 Y-2.14285
G01 X0.36949 Y-2.14197
G01 X0.37813 Y-2.14195
G01 X0.38700 Y-2.14375
G01 X0.39530 Y-2.14735
G01 X0.40299 Y-2.15286
G01 X0.40928 Y-2.15993
G01 X0.41373 Y-2.16781
G01 X0.41627 Y-2.17564
G01 X0.41730 Y-2.18545
G01 X0.41627 Y-2.19444
G01 X0.41339 Y-2.20302
G01 X0.40905 Y-2.21049
G01 X0.40299 Y-2.21722
G01 X0.39601 Y-2.22232
G01 X0.38778 Y-2.22608
G01 X0.37813 Y-2.22813
G01 X0.36949 Y-2.22811
G01 X0.36025 Y-2.22608
G01 X0.35273 Y-2.22273
G01 X0.34536 Y-2.21748
G01 X0.33790 Y-2.20866
G01 X0.32812 Y-2.20866
G01 X0.31890 Y-2.21789
G01 X0.31890 Y-2.39021
G01 X0.42474 Y-2.49606
G01 X0.58077 Y-2.49606
G01 X0.90251 Y-2.17431
G01 X0.90160 Y-2.16494
G01 X0.90252 Y-2.15635
G01 X0.90517 Y-2.14812
G01 X0.90985 Y-2.13990
G01 X0.91590 Y-2.13317
G01 X0.92360 Y-2.12766
G01 X0.93190 Y-2.12406
G01 X0.94077 Y-2.12226
G01 X0.94941 Y-2.12228
G01 X0.95366 Y-2.12317
G01 X1.00000 Y-2.07683
G01 X1.00000 Y-1.46648
G01 X0.95366 Y-1.42014
G01 X0.94941 Y-1.42102
G01 X0.94077 Y-1.42104
G01 X0.93190 Y-1.41925
G01 X0.92323 Y-1.41546
G01 X0.91590 Y-1.41014
G01 X0.90962 Y-1.40306
G01 X0.90532 Y-1.39557
G01 X0.90252 Y-1.38696
G01 X0.90160 Y-1.37836
G01 X0.90252 Y-1.36895
G01 X0.90532 Y-1.36034
G01 X0.90962 Y-1.35284
G01 X0.91590 Y-1.34577
G01 X0.92323 Y-1.34045
G01 X0.93190 Y-1.33666
G01 X0.94077 Y-1.33486
G01 X0.94900 Y-1.33486
G01 X0.95366 Y-1.33577
G01 X1.00000 Y-1.28943
G01 X1.00000 Y-0.67907
G01 X0.95366 Y-0.63274
G01 X0.94941 Y-0.63362
G01 X0.94036 Y-0.63362
G01 X0.93150 Y-0.63174
G01 X0.92360 Y-0.62824
G01 X0.91561 Y-0.62244
G01 X0.90962 Y-0.61566
G01 X0.90532 Y-0.60816
G01 X0.90246 Y-0.59915
G01 X0.90160 Y-0.59014
G01 X0.90263 Y-0.58115
G01 X0.90532 Y-0.57294
G01 X0.90962 Y-0.56544
G01 X0.91561 Y-0.55866
G01 X0.92288 Y-0.55327
G01 X0.93150 Y-0.54936
G01 X0.94077 Y-0.54746
G01 X0.94941 Y-0.54748
G01 X0.95865 Y-0.54951
G01 X0.96688 Y-0.55327
G01 X0.97415 Y-0.55866
G01 X0.97966 Y-0.56478
G01 X0.98444 Y-0.57294
G01 X0.98713 Y-0.58115
G01 X0.98819 Y-0.59055
G01 X0.98723 Y-0.59950
G01 X1.04058 Y-0.65287
G01 X1.04346 Y-0.65650
G01 X1.04558 Y-0.66061
G01 X1.04685 Y-0.66507
G01 X1.04724 Y-0.66929
G01 X1.04723 Y-1.29960
G01 X1.04558 Y-1.30789
G01 X1.04346 Y-1.31200
G01 X1.04058 Y-1.31563
G01 X0.98725 Y-1.36899
G01 X0.98817 Y-1.37754
G01 X0.98725 Y-1.38691
G01 X1.04058 Y-1.44027
G01 X1.04346 Y-1.44390
G01 X1.04558 Y-1.44802
G01 X1.04723 Y-1.45631
G01 X1.04724 Y-2.08661
G01 X1.04685 Y-2.09084
G01 X1.04558 Y-2.09529
G01 X1.04346 Y-2.09941
G01 X1.04058 Y-2.10303
G01 X0.98725 Y-2.15639
G01 X0.98817 Y-2.16494
G01 X0.98725 Y-2.17431
G01 X1.04032 Y-2.22739
G01 X1.04346 Y-2.23130
G01 X1.04558 Y-2.23542
G01 X1.04723 Y-2.24371
G01 X1.04724 Y-2.27210
G01 X1.17278 Y-2.39764
G01 X1.46659 Y-2.39764
G01 X1.68993 Y-2.17430
G01 X1.68900 Y-2.16494
G01 X1.69003 Y-2.15595
G01 X1.69272 Y-2.14774
G01 X1.69702 Y-2.14024
G01 X1.70301 Y-2.13346
G01 X1.71028 Y-2.12807
G01 X1.71930 Y-2.12406
G01 X1.72817 Y-2.12226
G01 X1.73681 Y-2.12228
G01 X1.74106 Y-2.12317
G01 X1.78740 Y-2.07683
G01 X1.78740 Y-1.46648
G01 X1.74106 Y-1.42014
G01 X1.73681 Y-1.42102
G01 X1.72817 Y-1.42104
G01 X1.71930 Y-1.41925
G01 X1.71063 Y-1.41546
G01 X1.70331 Y-1.41014
G01 X1.69725 Y-1.40341
G01 X1.69291 Y-1.39593
G01 X1.68992 Y-1.38696
G01 X1.68900 Y-1.37836
G01 X1.68992 Y-1.36895
G01 X1.69257 Y-1.36072
G01 X1.69725 Y-1.35250
G01 X1.70331 Y-1.34577
G01 X1.71063 Y-1.34045
G01 X1.71930 Y-1.33666
G01 X1.72817 Y-1.33486
G01 X1.73640 Y-1.33486
G01 X1.74106 Y-1.33577
G01 X1.78740 Y-1.28943
G01 X1.78740 Y-0.68400
G01 X1.74106 Y-0.63766
G01 X1.73640 Y-0.63856
G01 X1.72735 Y-0.63848
G01 X1.71890 Y-0.63666
G01 X1.71100 Y-0.63316
G01 X1.70301 Y-0.62736
G01 X1.69725 Y-0.62093
G01 X1.69291 Y-0.61345
G01 X1.69003 Y-0.60487
G01 X1.68900 Y-0.59506
G01 X1.69003 Y-0.58607
G01 X1.69257 Y-0.57824
G01 X1.69702 Y-0.57036
G01 X1.70301 Y-0.56358
G01 X1.71028 Y-0.55819
G01 X1.71890 Y-0.55428
G01 X1.72817 Y-0.55238
G01 X1.73722 Y-0.55247
G01 X1.74605 Y-0.55443
G01 X1.75428 Y-0.55819
G01 X1.76094 Y-0.56303
G01 X1.76706 Y-0.56970
G01 X1.77166 Y-0.57749
G01 X1.77454 Y-0.58607
G01 X1.77559 Y-0.59547
G01 X1.77463 Y-0.60442
G01 X1.82799 Y-0.65780
G01 X1.83086 Y-0.66142
G01 X1.83298 Y-0.66554
G01 X1.83425 Y-0.66999
G01 X1.83465 Y-0.67421
G01 X1.83463 Y-1.29960
G01 X1.83410 Y-1.30419
G01 X1.83268 Y-1.30860
G01 X1.82799 Y-1.31563
G01 X1.77465 Y-1.36899
G01 X1.77557 Y-1.37754
G01 X1.77465 Y-1.38691
G01 X1.82799 Y-1.44027
G01 X1.83268 Y-1.44730
G01 X1.83410 Y-1.45171
G01 X1.83463 Y-1.45631
G01 X1.83465 Y-2.08661
G01 X1.83425 Y-2.09084
G01 X1.83298 Y-2.09529
G01 X1.83086 Y-2.09941
G01 X1.82799 Y-2.10303
G01 X1.77463 Y-2.15641
G01 X1.77557 Y-2.16494
G01 X1.77463 Y-2.17430
G01 X1.82773 Y-2.22739
G01 X1.83086 Y-2.23130
G01 X1.83298 Y-2.23542
G01 X1.83463 Y-2.24371
G01 X1.83465 Y-2.27210
G01 X1.96018 Y-2.39764
G01 X2.54770 Y-2.39764
G01 X2.57480 Y-2.37053
G01 X2.57480 Y-2.25388
G01 X2.52847 Y-2.20754
G01 X2.52380 Y-2.20845
G01 X2.51557 Y-2.20845
G01 X2.50670 Y-2.20665
G01 X2.49840 Y-2.20305
G01 X2.49103 Y-2.19780
G01 X2.48465 Y-2.19081
G01 X2.48012 Y-2.18297
G01 X2.47743 Y-2.17476
G01 X2.47640 Y-2.16576
G01 X2.47726 Y-2.15676
G01 X2.48012 Y-2.14774
G01 X2.48465 Y-2.13990
G01 X2.49042 Y-2.13346
G01 X2.49769 Y-2.12807
G01 X2.50630 Y-2.12417
G01 X2.51557 Y-2.12226
G01 X2.52421 Y-2.12228
G01 X2.52847 Y-2.12317
G01 X2.57480 Y-2.07683
G01 X2.57480 Y-1.46648
G01 X2.52847 Y-1.42014
G01 X2.52380 Y-1.42104
G01 X2.51557 Y-1.42104
G01 X2.50670 Y-1.41925
G01 X2.49840 Y-1.41564
G01 X2.49071 Y-1.41014
G01 X2.48465 Y-1.40341
G01 X2.48031 Y-1.39593
G01 X2.47732 Y-1.38696
G01 X2.47640 Y-1.37836
G01 X2.47732 Y-1.36895
G01 X2.47997 Y-1.36072
G01 X2.48465 Y-1.35250
G01 X2.49071 Y-1.34577
G01 X2.49840 Y-1.34026
G01 X2.50670 Y-1.33666
G01 X2.51557 Y-1.33486
G01 X2.52380 Y-1.33486
G01 X2.52847 Y-1.33577
G01 X2.57480 Y-1.28943
G01 X2.57480 Y-0.67908
